X:1
T:Partita III (A = 415 Hz)
T:BWV 827
T:J. S. Bach
%%score { ( 1 3 4 5 ) | ( 2 6 7 ) }
L:1/8
M:3/8
K:C
V:1 treble nm="Harp"
V:3 treble 
V:4 treble 
V:5 treble 
V:2 bass 
V:6 bass 
V:7 bass 
V:1
"^Fantasia" z/ A/B/^G/A/c/ | D/B/E/D/C/B,/ | CEA- | A^GB- | B/A/^G/A/B/c/ | d/f/B/f/e/d/ | %6
 cB/A/f- | fe/d/g | e/c/d/B/c/e/ | a/B/c/A/B/d/ | g/A/B/^G/A/c/ | fdG | ecF | d/E/F/D/E/^G/ | cBA | %15
 ^G/A/B/F/E/D/ | C/E/F/D/E/A/ | B/E/F/D/E/B/ | c/E/F/D/E/c/ | B/A/^G/B/E | z/ e/f/d/e/c/ | %21
 B/e/f/d/e/B/ | A/e/f/d/e/A/ | ^G/B/E/c/d/B/ | c/e/A/^G/A/c/ | ^F/A/D/B/c/A/ | B/d/G/^F/G/B/ | %27
 E/G/C/A/B/G/ | A/c/^F/E/F/A/ | ^D/^F/B,/G/A/F/ | GBe- | e^d^f- | f/e/^f/^d/e/g/ | A/^f/B/A/G/^F/ | %34
 G^F/E/c- | cB/A/d | B/c/d/e/^f/g/ | a/c'/^f/c'/b/a/ | gbe | cad | Bgc | A/^F/G/E/F/A/ | %42
 d/E/^F/^D/E/G/ | c/^D/E/^C/D/^F/ | B/E/A/B,/C/A,/ | B,/^D/^F/A/G/F/ | G/B/d/A/B/e/ | %47
 ^f/B/c/A/B/f/ | g/B/c/A/B/g/ | ^f/e/^d/f/B- | Be/^f/g | AA/4G/4^F/G/A/ | B/G/A/^F/G/e/ | %53
 G/4^F/4E/4[F^^F]/4G/4^F/4G/4F/4G/4F/4G/4F/4 | G/4^F/4B/e/^d/e/g/ | c/e/A/^f/g/e/ | %56
 ^f/a/d/^c/d/f/ | B/d/G/e/^f/^d/ | e/g/c/B/c/e/ | A/c/^F/^d/e/^c/ | ^d/^f/B/g/a/f/ | g3- | %62
 g/e/^f/^d/e/c'/ | b/e/^f/^d/e/b/ | ag/4^f/4e/4[ff]/4g/4f/4e/4f/4 | e3- | e/B/^c/e/g/d/ | %67
 e/g/_b/g/e/f/ | g/e/^c/_B/A/g/ | f3- | f/A/B/d/f/c/ | d/f/_a/f/d/e/ | f/d/B/_A/G/f/ | e3- | %74
 e/a/b/^g/a/c'/ | d/^g/a/^f/g/b/ | c/a/f/d/B/d/ | A/4^G/4A/4G/4A/4G/4^F/E | z/ e/f/d/e/c/ | %79
 B/e/f/d/e/B/ | A/e/f/d/e/A/ | ^G/B/E/c/d/B/ | c/e/A/f/g/e/ | f/a/d/c/d/f/ | B/d/G/e/f/d/ | %85
 e/g/c/B/c/e/ | A/c/F/d/e/c/ | d/f/B/A/B/d/ | ^G/B/E/c/d/B/ | c/e/A/^G/A/c/ | d/f/A/^G/A/d/ | %91
 e/g/A/^G/A/e/ | f3- | f/A/B/^G/A/f/ | e/A/B/^G/A/e/ | dc/4B/4A/4B/4c/4B/4A/4B/4 | A/E/F/D/E/A/ | %97
 B/E/F/D/E/B/ | c/E/F/D/E/c/ | B/A/^G/^F/E/D/ |{D} C>A^G/A/ |{E} D>A^G/A/ | E/^G/A/B/c- | %103
 c/A/B/^G/A/c/ | f3- | f/d/e/^c/d/f/ | b3- | b/c/d/B/c/e/ | a/B/c/A/B/d/ | g/A/B/^G/A/c/ | fdG | %111
 ecF | d/E/F/D/E/^G/ | c/^D/E/^C/D/^F/ | A/^F/^D/C/B,/A/ | ^G/B/d/f/e- | e/A/c/B/A/^G/ | %117
 A/E/F/D/_B/^G/ | A/c/E/A/B/^G/ | A3 |[M:4/4]"^Allemande"[Q:1/4=60] z4 z2 ee/4d/4c/4B/4 | %121
 c/B/4A/4d/c/4B/4 e/d/4c/<f/A/4 ^G/4A/4B/4d/4-d- d-d/c/4B/4 | %122
 c2- c/>A/d/>E/ =G/4F/4G/4F/4E- E/4G/4F/4E/4A/B/4c/4- | %123
 c2- c/4A/4G/4^F/4B/c/4d/4- d2- d/4f/4e/4d/4^g/a/4b/4 | %124
 e>a- a/>f/e/>d/ d/4c/4d/4c/4B/A/ e/4d/4e/4d/4c/4B/4c/4e/4 | %125
 g/4d/4c/4B/4c/4e/4d/4c/4 a2- a/4d/4e/4^f/<g/a/4 b/4a/4b/-b- | %126
 b/4e/4^f/4^g/<a/b/4 c'/>f/(4:3:4a/4=g/4f/4g/4a/4 (4:3:4e/4^d/4e/4d/4^c/4B- B/4B/4c/4d/4(4:3:4d/4c/4d/4c/4B/4 | %127
 e/4B/4c/4d/4(4:3:4d/4c/4B/4c/4B/4 ^f2 z/4 e/4f/4g/4(4:3:4g/4f/4g/4f/4e/4 ^a2 | %128
 z/4 a/4g/4^f/4g- gf/>^d/ de e/4=d/4e/-e/4d/4c/4B/4 | %129
 c/B/4A/4d/c/4B/4 e/d/4c/<f/A/4 ^G/4A/4B/4d/4-d- d-d/c/4B/4 | %130
 c2- c/>A/d/>E/ =G/4F/4G/4F/4E- E/4G/4F/4E/4A/B/4c/4- | %131
 c2- c/4A/4G/4^F/4B/c/4d/4- d2- d/4f/4e/4d/4^g/a/4b/4 | %132
 e>a- a/>f/e/>d/ d/4c/4d/4c/4B/A/ e/4d/4e/4d/4c/4B/4c/4e/4 | %133
 g/4d/4c/4B/4c/4e/4d/4c/4 a2- a/4d/4e/4^f/<g/a/4 b/4a/4b/-b- | %134
 b/4e/4^f/4^g/<a/b/4 c'/>f/(4:3:4a/4=g/4f/4g/4a/4 (4:3:4e/4^d/4e/4d/4^c/4B- B/4B/4c/4d/4(4:3:4d/4c/4d/4c/4B/4 | %135
 e/4B/4c/4d/4(4:3:4d/4c/4B/4c/4B/4 ^f2 z/4 e/4f/4g/4(4:3:4g/4f/4g/4f/4e/4 ^a2 | %136
 z/4 a/4g/4^f/4g- gf/>^d/ de B/=d/4c/4B/4c/4d/ | %137
 ^G/A/4B/4E/G/4B/4 d/c/4B/4f/e/4d/4 z A- A/4B/4c/4d/4e/4f/4g/ | %138
 ^c/d/4e/4A/c/4e/4 g/f/4e/4_b/a/4g/4 z d- d/4f/4e/4d/4g/4a/4b/- | %139
 b2 z3/4 c/4-c z _B- B/4d/4c/4B/4e/4f/4g/- | g/4g/4f/4e/<f/d/4- d/^c/4d/4e/4d/4c/ d2 z2 | %141
 B/4A/4G/4^F/4G/4B/4d/4e/4 f2- f/4-f/4e/4d/<e/c/4 A2- | %142
 A/4^G/4A/4B/4E/4d/4c/4B/4 c-c/4c/4B/4A/4 A/4G/4A/4G/4A/4G/4A/4G/4 AB- | %143
 B/4A/4B/4c/4(4:3:4c/4B/4c/4B/4A/4 ^G/4B/4c/4d/4(4:3:4d/4c/4d/4c/4B/4 A/4e/4^f/4g/4(4:3:4g/4f/4g/4f/4e/4 z/4 a/4b/4c'/4b/4a/4^g/4a/4 | %144
 d/4f/4e/4d/4e/4B/4c/4A/4 z/ A/B/>^G/ GA B/d/4c/4B/4c/4d/ | %145
 ^G/A/4B/4E/G/4B/4 d/c/4B/4f/e/4d/4 z A- A/4B/4c/4d/4e/4f/4g/ | %146
 ^c/d/4e/4A/c/4e/4 g/f/4e/4_b/a/4g/4 z d- d/4f/4e/4d/4g/4a/4b/- | %147
 b2 z3/4 c/4-c z _B- B/4d/4c/4B/4e/4f/4g/- | g/4g/4f/4e/<f/d/4- d/^c/4d/4e/4d/4c/ d2 z2 | %149
 B/4A/4G/4^F/4G/4B/4d/4e/4 f2- f/4-f/4e/4d/<e/c/4 A2- | %150
 A/4^G/4A/4B/4E/4d/4c/4B/4 c-c/4c/4B/4A/4 A/4G/4A/4G/4A/4G/4A/4G/4 AB- | %151
 B/4A/4B/4c/4(4:3:4c/4B/4c/4B/4A/4 ^G/4B/4c/4d/4(4:3:4d/4c/4d/4c/4B/4 A/4e/4^f/4g/4(4:3:4g/4f/4g/4f/4e/4 z/4 a/4b/4c'/4b/4a/4^g/4a/4 | %152
 d/4f/4e/4d/4e/4B/4c/4A/4 z/ A/B/>^G/ G!fermata!A z2 |[M:3/4][Q:1/4=100]"^Corrente" z4 z/ d/c/B/ | %154
 c>e a>e b>d | c/e/^f/^g/ a>e b>d | c/A/B/c/ d/e/f/e/ d/c/B/A/ | ^G/A/B/G/ E4- | %158
 E/D/C/B,/ C/A,/C/E/ A/^G/^F/E/ | c/B/A/G/ F/D/F/A/ d/^c/B/A/ | f/e/d/c/ B/G/B/d/ g/^f/e/d/ | %161
 b/a/g/f/ e/c/e/g/ c'/b/a/g/ | a>d e/d/^c/d/ e/d/c/d/ | g>B c/4B/4 c7/2- | c>B c/B/A/B/ c/B/A/B/ | %165
 e>^G A/4G/4 A7/2- | A/d/e/f/ e/d/c/B/ A/^G/A/B/ | E/B/^G/F/ E/c/A/F/ E/d/B/F/ | %168
 E/c/A/F/ E/B/^G/F/ E/c/A/F/ | E/d/B/F/ E/c/A/F/ E/B/^G/F/ | %170
 E3/2c/4d/4 e/4d/4e/4d/4e/4d/4e/4d/4 e/4d/4e/4d/4 c/d/ | e2- e/d/c/B/ c/e/c/A/ | %172
 ^G/B/G/E/ D/F/E/D/ C/E/C/A,/ | ^G,/B,/E- E2 z/ d/c/B/ | c>e a>e b>d | c/e/^f/^g/ a>e b>d | %176
 c/A/B/c/ d/e/f/e/ d/c/B/A/ | ^G/A/B/G/ E4- | E/D/C/B,/ C/A,/C/E/ A/^G/^F/E/ | %179
 c/B/A/G/ F/D/F/A/ d/^c/B/A/ | f/e/d/c/ B/G/B/d/ g/^f/e/d/ | b/a/g/f/ e/c/e/g/ c'/b/a/g/ | %182
 a>d e/d/^c/d/ e/d/c/d/ | g>B c/4B/4 c7/2- | c>B c/B/A/B/ c/B/A/B/ | e>^G A/4G/4 A7/2- | %186
 A/d/e/f/ e/d/c/B/ A/^G/A/B/ | E/B/^G/F/ E/c/A/F/ E/d/B/F/ | E/c/A/F/ E/B/^G/F/ E/c/A/F/ | %189
 E/d/B/F/ E/c/A/F/ E/B/^G/F/ | E3/2c/4d/4 e/4d/4e/4d/4e/4d/4e/4d/4 e/4d/4e/4d/4 c/d/ | %191
 e2- e/d/c/B/ c/e/c/A/ | ^G/B/G/E/ D/F/E/D/ C/E/C/A,/ | ^G,/B,/E- E2 z/ B/c/A/ | ^G>E B>D E>B, | %195
 C/E/F/D/ E>A ^G>d | c/e/a/g/ f/e/d/c/ B/A/^G/F/ | E/d/c/B/ c/4B/4 c7/2- | %198
 c/B/A/G/ A/F/A/c/ f/e/d/c/ | d/c/B/A/ B/G/B/d/ g/f/e/d/ | e/d/c/B/ c/A/c/e/ a/g/f/e/ | %201
 d/c/B/A/ G/B/c/d/ c/B/A/G/ | c>F G/F/E/F/ G/F/E/F/ | B>D E/4D/4 E7/2- | E>D E/D/C/D/ E/D/C/D/ | %205
 G>B, C/4B,/4 C7/2- | C/F/G/A/ G/F/E/D/ C/B,/C/D/ | G,>B, C/4B,/4CG,/ D/4C/4DG,/ | E>G, D>G, E>G, | %209
 F>G, E>G, F>G, | G/E/F/G/ A/F/E/D/ B/G/A/B/ | c/A/G/F/ d/B/c/d/ e/c/B/A/ | %212
 f/d/e/f/ g/e/d/c/ a/f/g/a/ | c/4B/4c/4B/4c/4B/4c/4B/4 c/4B/4G/A/B/ c/d/e/f/ | %214
 g/f/a/g/ f/e/d/c/ e/d/c/B/ | c2- c/G/c/d/ e/c/d/e/ | A/^c/e/g/ _b>c d>e | %217
 f/4e/4f3/2- f/A/d/e/ f/d/e/f/ | B/^d/^f/a/ c'>d e>f | g2- g/e/^f/^g/ a/g/f/g/ | %220
 a>d ^c/d/e/f/ g/f/g/e/ | f/d/e/f/ e/c/d/e/ d/B/c/d/ | c/A/^G/A/ d/e/f/e/ d/c/B/A/ | %223
 ^G/^F/G/F/ E2- E/f/e/d/ | c/e/^g/a/ B/d/^f/=g/ A/c/e/=f/ | ^G/B/^d/e/ ^F/A/e/^c/ G/B/=d/B/ | %226
 c/A/F/E/ B/^G/E/D/ A/^F/^D/C/ | B,/A/^G/^F/ E/G/B/d/ d/4c/4d/4c/4d/4c/4B/ | e>B c/4B/4cA/ E>^G | %229
 A2- A2 z/ B/c/A/ | ^G>E B>D E>B, | C/E/F/D/ E>A ^G>d | c/e/a/g/ f/e/d/c/ B/A/^G/F/ | %233
 E/d/c/B/ c/4B/4 c7/2- | c/B/A/G/ A/F/A/c/ f/e/d/c/ | d/c/B/A/ B/G/B/d/ g/f/e/d/ | %236
 e/d/c/B/ c/A/c/e/ a/g/f/e/ | d/c/B/A/ G/B/c/d/ c/B/A/G/ | c>F G/F/E/F/ G/F/E/F/ | %239
 B>D E/4D/4 E7/2- | E>D E/D/C/D/ E/D/C/D/ | G>B, C/4B,/4 C7/2- | C/F/G/A/ G/F/E/D/ C/B,/C/D/ | %243
 G,>B, C/4B,/4CG,/ D/4C/4DG,/ | E>G, D>G, E>G, | F>G, E>G, F>G, | G/E/F/G/ A/F/E/D/ B/G/A/B/ | %247
 c/A/G/F/ d/B/c/d/ e/c/B/A/ | f/d/e/f/ g/e/d/c/ a/f/g/a/ | %249
 c/4B/4c/4B/4c/4B/4c/4B/4 c/4B/4G/A/B/ c/d/e/f/ | g/f/a/g/ f/e/d/c/ e/d/c/B/ | %251
 c2- c/G/c/d/ e/c/d/e/ | A/^c/e/g/ _b>c d>e | f/4e/4f3/2- f/A/d/e/ f/d/e/f/ | B/^d/^f/a/ c'>d e>f | %255
 g2- g/e/^f/^g/ a/g/f/g/ | a>d ^c/d/e/f/ g/f/g/e/ | f/d/e/f/ e/c/d/e/ d/B/c/d/ | %258
 c/A/^G/A/ d/e/f/e/ d/c/B/A/ | ^G/^F/G/F/ E2- E/f/e/d/ | c/e/^g/a/ B/d/^f/=g/ A/c/e/=f/ | %261
 ^G/B/^d/e/ ^F/A/e/^c/ G/B/=d/B/ | c/A/F/E/ B/^G/E/D/ A/^F/^D/C/ | %263
 B,/A/^G/^F/ E/G/B/d/ d/4c/4d/4c/4d/4c/4B/ | e>B c/4B/4cA/ E>^G | A2- A2 z2 | z6 | %267
[M:3/4][Q:1/4=60] z2 z A/A/4^G/4 A/4G/4A/4G/4F/4G/4A/ | E/4D/4E/(3F/E/D/ EE EE | %269
 cB z A/A/4^G/4 A/4G/4A/4G/4F/4G/4A/ | [Bd][Ac] z A/A/4^G/4 A/4G/4A/4G/4F/4G/4A/ | fe z e ee | %272
 e(3f/e/d/ e(3g/f/e/ f(3a/g/f/ | g6- | g(3g/f/e/ f(3f/e/d/ e(3e/d/c/ | %275
 c/e/d z c'/c'/4b/4 c'/4b/4c'/4b/4a/4b/4c'/ | f/4e/4f/(3g/f/e/ f(3a/g/f/ (3g/f/e/(3f/e/d/ | %277
 e/4d/4e/(3f/e/d/ ec'/c'/4b/4 c'/4b/4c'/4b/4a/4b/4c'/ | %278
 d/4c/4d/(3f/e/d/ (3g/f/e/(3f/e/d/ (3e/d/c/(3d/c/B/ | c3 A/A/4^G/4 A/4G/4A/4G/4F/4G/4A/ | %280
 E/4D/4E/(3F/E/D/ EE EE | cB z A/A/4^G/4 A/4G/4A/4G/4F/4G/4A/ | %282
 [Bd][Ac] z A/A/4^G/4 A/4G/4A/4G/4F/4G/4A/ | fe z e ee | e(3f/e/d/ e(3g/f/e/ f(3a/g/f/ | g6- | %286
 g(3g/f/e/ f(3f/e/d/ e(3e/d/c/ | c/e/d z c'/c'/4b/4 c'/4b/4c'/4b/4a/4b/4c'/ | %288
 f/4e/4f/(3g/f/e/ f(3a/g/f/ (3g/f/e/(3f/e/d/ | %289
 e/4d/4e/(3f/e/d/ ec'/c'/4b/4 c'/4b/4c'/4b/4a/4b/4c'/ | %290
 d/4c/4d/(3f/e/d/ (3g/f/e/(3f/e/d/ (3e/d/c/(3d/c/B/ | c3 z z2 | z2 z g fe | d^f g z z2 | %294
 z2 z f ed | (3^c/B/A/(3d/c/B/ c z z2 | z2 z (3d/e/f/ (3f/g/a/(3a/_b/c'/ | %297
 (3_b/a/b/(3c'/b/a/ b(3c/d/e/ (3e/f/g/(3g/a/b/ | (3a/g/a/(3_b/a/g/ ad e^c | d3 f (3e/d/e/(3f/e/d/ | %300
 f3 f (3e/d/e/(3f/e/d/ | ed/e/ ca/a/4^g/4 a/4g/4a/4g/4f/4g/4a/ | %302
 d(3e/d/c/ (3d/c/B/(3c/B/A/ (3B/A/^G/(3A/G/^F/ | (3^G/A/B/(3A/G/^F/ Ec B/B/4A/4B/4A/4B/4A/4 | %304
 d/4c/4d/(3c/d/e/ d(3B/c/d/ (3c/d/e/(3d/e/f/ | (3e/d/e/(3f/e/d/ ea/a/4^g/4 a/4g/4a/4g/4f/4g/4a/ | %306
 d/4c/4d/(3f/e/d/ (3e/d/c/(3d/c/B/ (3c/B/A/(3B/A/^G/ | A3 z z2 | z2 z g fe | d^f g z z2 | %310
 z2 z f ed | (3^c/B/A/(3d/c/B/ c z z2 | z2 z (3d/e/f/ (3f/g/a/(3a/_b/c'/ | %313
 (3_b/a/b/(3c'/b/a/ b(3c/d/e/ (3e/f/g/(3g/a/b/ | (3a/g/a/(3_b/a/g/ ad e^c | d3 f (3e/d/e/(3f/e/d/ | %316
 f3 f (3e/d/e/(3f/e/d/ | ed/e/ ca/a/4^g/4 a/4g/4a/4g/4f/4g/4a/ | %318
 d(3e/d/c/ (3d/c/B/(3c/B/A/ (3B/A/^G/(3A/G/^F/ | (3^G/A/B/(3A/G/^F/ Ec B/B/4A/4B/4A/4B/4A/4 | %320
 d/4c/4d/(3c/d/e/ d(3B/c/d/ (3c/d/e/(3d/e/f/ | (3e/d/e/(3f/e/d/ ea/a/4^g/4 a/4g/4a/4g/4f/4g/4a/ | %322
 d/4c/4d/(3f/e/d/ (3e/d/c/(3d/c/B/ (3c/B/A/(3B/A/^G/ | !fermata!A3 z3 | %324
[M:3/4][Q:1/4=100]"^Burlesca" AB c/4B/4c/4B/4A/B/ c^G | A/4^G/4A3/2 E2 A2 | %326
 Bc d/4c/4d/4c/4B/c/ dA | B/4A/4B3/2 e2 d2 | d/c/B/c/- [cf]2 [Be]2 | B/A/^G/A/- [Ad]2 [=Gc]2 | %330
 z/ B/A/^G/ A/B/c/d/ e/d/e/f/ | A/4^G/4A/4G/4A/4G/4A/4G/4 A/4G/4A/4G/4 ^F E2 | c6- | %333
 c/c/B/c/ d/c/B/c/ a/c/B/c/ | d6- | d/d/c/d/ e/d/c/d/ b/d/c/d/ | e2 ^f^g ab | %337
 c'/a/g/a/ b/g/^f/g/ a/f/e/f/ | g/e/^d/e/ ^f2 d2 | e6 | AB c/4B/4c/4B/4A/B/ c^G | %341
 A/4^G/4A3/2 E2 A2 | Bc d/4c/4d/4c/4B/c/ dA | B/4A/4B3/2 e2 d2 | d/c/B/c/- [cf]2 [Be]2 | %345
 B/A/^G/A/- [Ad]2 [=Gc]2 | z/ B/A/^G/ A/B/c/d/ e/d/e/f/ | %347
 A/4^G/4A/4G/4A/4G/4A/4G/4 A/4G/4A/4G/4 ^F E2 | c6- | c/c/B/c/ d/c/B/c/ a/c/B/c/ | d6- | %351
 d/d/c/d/ e/d/c/d/ b/d/c/d/ | e2 ^f^g ab | c'/a/g/a/ b/g/^f/g/ a/f/e/f/ | g/e/^d/e/ ^f2 d2 | e6 | %356
 Bc d/4c/4d/4c/4B/c/ dB | FE FD EB | ^cd e/4d/4e/4d/4c/d/ ec | _BA BG Ag | f/d/^c/d/ _b2 a2 | %361
 e/d/^c/d/- [dg]2 [=cf-]2 | fe fe d^c | d6 | f6- | f/d/A/B/ c/B/A/B/ d/B/A/B/ | e6- | %367
 e/c/^G/A/ B/A/G/A/ c/A/G/A/ | d/e/f- f/e/d/c/ d/c/B/A/ | B/c/d- d/c/B/A/ B/A/^G/^F/ | %370
 E/^G/^F/E/ A/c/B/A/ d/c/B/A/ | ed/c/ B/A/^G/^F/ E/D/C/B,/ | z/ E/D/E/ ^F/E/D/E/ G/E/D/E/ | %373
 z/ ^F/E/F/ ^G/F/E/F/ A/F/E/F/ | z/ ^G/^F/G/ A/G/F/G/ B/G/F/G/ | z/ A/^G/A/ B/A/G/A/ ^c/A/G/A/ | %376
 d/A/^G/A/ e/A/G/A/ ^e2- | e/d/c/d/ =e/c/B/c/ d/B/A/B/ | c/A/^G/A/ B2 G2 | A6 | %380
 Bc d/4c/4d/4c/4[BB]/c/ dB | FE FD EB | ^cd e/4d/4e/4d/4c/d/ ec | _BA BG Ag | f/d/^c/d/ _b2 a2 | %385
 e/d/^c/d/- [dg]2 [=cf-]2 | fe fe d^c | d6 | f6- | f/d/A/B/ c/B/A/B/ d/B/A/B/ | e6- | %391
 e/c/^G/A/ B/A/G/A/ c/A/G/A/ | d/e/f- f/e/d/c/ d/c/B/A/ | B/c/d- d/c/B/A/ B/A/^G/^F/ | %394
 E/^G/^F/E/ A/c/B/A/ d/c/B/A/ | ed/c/ B/A/^G/^F/ E/D/C/B,/ | z/ E/D/E/ ^F/E/D/E/ G/E/D/E/ | %397
 z/ ^F/E/F/ ^G/F/E/F/ A/F/E/F/ | z/ ^G/^F/G/ A/G/F/G/ B/G/F/G/ | z/ A/^G/A/ B/A/G/A/ ^c/A/G/A/ | %400
 d/A/^G/A/ e/A/G/A/ ^e2- | e/d/c/d/ =e/c/B/c/ d/B/A/B/ | c/A/^G/A/ B2 G2 | !fermata!A6 | %404
[M:2/4]"^Scherzo" z2 e/c/A- | A^G/A/ B/c/d/B/ | d/c/B/A/ e/d/c/B/ | A/E/A/c/ B/E/B/d/ | %408
 c/e/c/A/ c/A/G/F/ | E/G/A/B/ c/F/E/D/ | C/G/A/B/ c/B/c/A/ | c/B/c/G/ c/B/c/F/ | E/G/A/B/ c/d/e- | %413
 e/d/e/f/ e/d/c/B/ | A/G/A/B/ c/d/e/f/ | gc e/d/c/B/ | c/4B/4c3/2 e/c/A- | A^G/A/ B/c/d/B/ | %418
 d/c/B/A/ e/d/c/B/ | A/E/A/c/ B/E/B/d/ | c/e/c/A/ c/A/G/F/ | E/G/A/B/ c/F/E/D/ | %422
 C/G/A/B/ c/B/c/A/ | c/B/c/G/ c/B/c/F/ | E/G/A/B/ c/d/e- | e/d/e/f/ e/d/c/B/ | A/G/A/B/ c/d/e/f/ | %427
 gc e/d/c/B/ | c/4B/4c3/2 g/e/c- | cB/c/ d/e/f/d/ | f/e/d/c/ a/f/d- | d^c/d/ e/f/g/e/ | %432
 g/f/e/d/ _b/c'/b/g/ | a/d'/a/f/ g/a/g/e/ | f/d'/f/d/ _e/_b/g/e/ | ^c/A/a e/4d/4c/4d/4e/c/ | %436
 d/4^c/4d3/2 f/d/A- | AB/c/ d/e/f/d/ | c/B/A/G/ e/c/^G- | GA/B/ c/d/e/c/ | B/A/^G/A/ d/F/E/D/ | %441
 d/^G/^F/E/ d/B/A/G/ | d/c/B/f/ e/d/c/B/ | c/B/d/c/ B/A/^G/A/ | B/^G/^F/E/ e/c/A- | %445
 A^G/A/ B/c/d/e/ | f/e/d/f/ e/d/c/B/ | c/d/e/A/ c/B/A/^G/ | A/4^G/4A3/2 g/e/c- | cB/c/ d/e/f/d/ | %450
 f/e/d/c/ a/f/d- | d^c/d/ e/f/g/e/ | g/f/e/d/ _b/c'/b/g/ | a/d'/a/f/ g/a/g/e/ | %454
 f/d'/f/d/ _e/_b/g/e/ | ^c/A/a e/4d/4c/4d/4e/c/ | d/4^c/4d3/2 f/d/A- | AB/c/ d/e/f/d/ | %458
 c/B/A/G/ e/c/^G- | GA/B/ c/d/e/c/ | B/A/^G/A/ d/F/E/D/ | d/^G/^F/E/ d/B/A/G/ | d/c/B/f/ e/d/c/B/ | %463
 c/B/d/c/ B/A/^G/A/ | B/^G/^F/E/ e/c/A- | A^G/A/ B/c/d/e/ | f/e/d/f/ e/d/c/B/ | %467
 c/d/e/A/ c/B/A/^G/ | A/4^G/4!fermata!A3/2 z2 |[M:12/8]"^Gigue"[Q:1/4=180] z8 z2 z E | %470
 A,CE A^GA B,DE AGA | CE^G ABc DcA _BdA | ^G3- G^FG A3- ABc | B3- B^de c6- | cBA B^fA- AG^F G3- | %475
 GAG AeG- GFE F3- | FFE Fd F2 ED EdE | c3- cBc d3- def | e3- e^ga f6- | fed ebd c6- | %480
 cA^F AFD B6- | BGE GEC A6- | A^F^D FDB, GB^d e3- | e2 ^d ^f3- fef g3- | ge^g ac'g ^f6- | %485
 fe^d e2 B e6- | ed^c d2 A d6- | dcB c2 ^G A3- A2- A | d6- db^g eBe | Ace a^ga Bde aga | %490
 ce^g abc' dc'a _bd'a | ^gbg eBd cec AE=G | Faf dAc BdB GDF | E e2- e2 d e6 | A,CE A^GA B,DE AGA | %495
 CE^G ABc DcA _BdA | ^G3- G^FG A3- ABc | B3- B^de c6- | cBA B^fA- AG^F G3- | GAG AeG- GFE F3- | %500
 FFE Fd F2 ED EdE | c3- cBc d3- def | e3- e^ga f6- | fed ebd c6- | cA^F AFD B6- | BGE GEC A6- | %506
 A^F^D FDB, GB^d e3- | e2 ^d ^f3- fef g3- | ge^g ac'g ^f6- | fe^d e2 B e6- | ed^c d2 A d6- | %511
 dcB c2 ^G A3- A2- A | d6- db^g eBe | Ace a^ga Bde aga | ce^g abc' dc'a _bd'a | ^gbg eBd cec AE=G | %516
 Faf dAc BdB GDF | E e2- e2 d e6 | z12 | z6 z3 z z E | AEC A,^G,A, GE^C A,G,A, | %521
 FD[I:staff +1]_B, A,^CD B,G,E, ^C,A,G, | F,[I:staff -1] z z z3 z[I:staff +1] ^F,G, B,D=F, | %523
 E,[I:staff -1] z z z3 z[I:staff +1] E,F, A,CE, | %524
 D,[I:staff -1] z z z3 z[I:staff +1] D,E, ^G,B,D, | C,E,F, A,CE, D,^F,G, B,D=F, | %526
[I:staff -1] z6 z3 z z B | eB^G E^DE dBG EDE | cAF E^GA FDB, ^G,ED | CEA c^GA c^F=G cEF | %530
 B,DG B^FG BEF B^DE | A,CE AE^F A^DE A^CD | G2 z z3 G2 z z3 | ^F2 z z3 F2 z z3 | %534
 E2 z z3 z3 z z ^f | b^fd B^AB af^d BAB | gec B^de cA^F ^DBA | %537
 G z z z ^fg a/4^g/4a/4g/4a/4g/4a/4g/4a/4g/4a/4g/4 a/4g/4a/4g/4fg | a3- abc' d2 f B2 ^g | a6- a6- | %540
 a6 g6- | g2 e f3- f2 e f3- | f2 b b2 d d2 B B2 e | edc dcB A6 | z12 | z6 z3 z z E | %546
 AEC A,^G,A, GE^C A,G,A, | FD[I:staff +1]_B, A,^CD B,G,E, ^C,A,G, | %548
 F,[I:staff -1] z z z3 z[I:staff +1] ^F,G, B,D=F, | %549
 E,[I:staff -1] z z z3 z[I:staff +1] E,F, A,CE, | %550
 D,[I:staff -1] z z z3 z[I:staff +1] D,E, ^G,B,D, | C,E,F, A,CE, D,^F,G, B,D=F, | %552
[I:staff -1] z6 z3 z z B | eB^G E^DE dBG EDE | cAF E^GA FDB, ^G,ED | CEA c^GA c^F=G cEF | %556
 B,DG B^FG BEF B^DE | A,CE AE^F A^DE A^CD | G2 z z3 G2 z z3 | ^F2 z z3 F2 z z3 | %560
 E2 z z3 z3 z z ^f | b^fd B^AB af^d BAB | gec B^de cA^F ^DBA | %563
 G z z z ^fg a/4^g/4a/4g/4a/4g/4a/4g/4a/4g/4a/4g/4 a/4g/4a/4g/4fg | a3- abc' d2 f B2 ^g | a6- a6- | %566
 a6 g6- | g2 e f3- f2 e f3- | f2 b b2 d d2 B B2 e | edc dcB !fermata!A6 |] %570
V:2
 A,A,,A,- | A,^G,E, | z/ A,/B,/^G,/A,/C/ | D,/B,/E,/D,/C,/B,,/ | C,E,A,- | A,^G,B,- | %6
 B,/A,/^G,/A,/B,/C/ | D/F/B,/F/E/D/ | CEA, | FDG, | ECF, | D/B,/C/A,/B,/D/ | G/A,/B,/G,/A,/C/ | %13
 F/^G,/A,/^F,/G,/B,/ | E/A,/D/E,/F,/D,/ | E,^G,E, | A,A,,A,- | A,/^G,/A,/^F,/G,/E,/ | %18
 A,/^G,/A,/B,/C/D/ | E/F/E/D/C/B,/ | A,A,,A, | G,G,,G, | F,F,,F, | E,^G,,E,, | A,,B,,C, | D,^F,D, | %26
 G,A,B, | CE,C, | ^F,G,A, | B,^D,B,, | E,/E/^F/^D/E/G/ | A,/^F/B,/A,/G,/^F,/ | G,B,,E,- | %33
 E,^D,^F,- | F,/E,/^D,/E,/^F,/G,/ | A,/C/^F,/C/B,/A,/ | G,^F,/E,/C- | CB,/A,/D | %38
 B,/G,/A,/^F,/G,/B,/ | E/^F,/G,/E,/F,/A,/ | D/E,/^F,/D,/E,/G,/ | CA,D, | B,G,C, | %43
 A,/B,,/C,/A,,/B,,/^D,/ | G,^F,E, | ^D,B,,D, | E,E,,E,- | E,/^D,/E,/^C,/D,/B,,/ | E,E,,E, | %49
 B,,/C,/B,,/A,,/G,,/^F,,/ | G,,/B,,/C,/A,,/B,,/G,,/ | ^F,,/B,,/C,/A,,/B,,/F,,/ | %52
 E,,/B,,/C,/A,,/B,,/E,,/ | ^D,,/^F,,/B,,/G,,/A,,/F,,/ | G,,^F,,E,, | A,,C,A,, | D,E,^F, | G,B,G, | %58
 CE,C, | ^F,A,F, | B,^D,B,, | E,/E/^F/^D/E/G/ | A,C^F, | G,B,E, | CA,B, | E,/^F,/G,/A,/_B,/D,/ | %66
 ^C,E,C, | A,,^C z | E,A,^C, | D,/E,/F,/G,/_A,/C,/ | B,,D,B,, | G,,B, z | D,G,B,, | %73
 C,/D,/E,/B,,/C,/A,,/ | F,,F, z | B,,B, z | A,D,F, | E,/F,/E,/D,/C,/B,,/ | A,,A,A,, | G,,G,G,, | %80
 F,,F,F,, | E,,^G,,E,, | A,,C,A,, | D,E,F, | G,A,G, | C,D,E, | F,A,F, | B,,C,D, | E,^G,E, | A,CA, | %90
 F,E,D, | ^C,B,,A,, | D,/F,/A,/E,/F,/A,/ | DFB, | CEA, | F,D,E, | A,A,,A,- | A,/^G,/A,/^F,/G,/E,/ | %98
 A,A,,A, | E,/F,/E,/D,/C,/B,,/ | A,,/E,/F,/_D,/E,/A,,/ | B,,/E,/F,/D,/E,/B,,/ | %102
 C,/E,/F,/D,/E,/C,/ | D,3- | D,/B,,/C,/A,,/B,,/D,/ | ^G,3- | G,/E,/F,/D,/E,/^G,/ | CEA, | FDG, | %109
 ECF, | D/B,/C/A,/B,/D/ | G/A,/B,/^G,/A,/C/ | F/^G,/A,/^F,/G,/B,/ | E/^F,/^G,/E,/F,/A,/ | %114
 ^D,^F,D, | E,/D,/B,,/^G,,/B,,/D,/ | C,,D,,E,, | F,,A,,D, | ^D,E,E,, | A,,3 | %120
[M:4/4] z4 z2 z/ A,,/C,/E,/ | A,B,CD E z/4 C/4B,/4A,/4 ^G,/A,/4B,/4E,/^F,/4G,/4 | %122
 A,CDG, C z/4 C,/4E,/4G,/4 C3/2B,/4A,/4 | D z/4 D,/4^F,/4A,/4 D3/2C/4B,/4 E z/4 C/4B,/4A,/4 ^G,2- | %124
 G,A,- [D,A,]^G, A,2- A,/ z/ z | z G, z A, z D G z | C2- C/>C/B,/>A,/ B,2 A,2 | %127
 z E2 ^D E2 ^C,/>E,/^A,/>^F,/ | C(4:3:4C/4B,/4C/4B,/4A,/4 B,2 E,2 z/ A,,/C,/E,/ | %129
 A,B,CD E z/4 C/4B,/4A,/4 ^G,/A,/4B,/4E,/^F,/4G,/4 | A,CDG, C z/4 C,/4E,/4G,/4 C3/2B,/4A,/4 | %131
 D z/4 D,/4^F,/4A,/4 D3/2C/4B,/4 E z/4 C/4B,/4A,/4 ^G,2- | G,A,- [D,A,]^G, A,2- A,/ z/ z | %133
 z G, z A, z D G z | C2- C/>C/B,/>A,/ B,2 A,2 | z E2 ^D E2 ^C,/>E,/^A,/>^F,/ | %136
 C(4:3:4C/4B,/4C/4B,/4A,/4 B,2 E,2 z/ E,,/^G,,/B,,/ | %137
 z ^G,2 G, A,/4G,/<A,/B,/4A,/4G,/4 A,/>E,/C,/>E,/ | z ^C,2 C, D, z _B,/>A,/B,/>G,/ | %139
 C-C/4E,/4D,/4C,/4 A,/>G,/A,/>F,/ _B,-B,/4A,/4G,/4F,/4 E,/>F,/G,/>E,/ | ^CD A,2- A,A, ^E,D, | %141
 G,4 C,2- C,/>^C,/D,/>E,/ | F,^G,,A,,^F,, E,,/4B,,/4C,/4D,/4E, ^F,^G, | [A,C]2 [B,D]2 [CE]2 z G,- | %144
 G,A, E,2 A,,2 z/ E,,/^G,,/B,,/ | z ^G,2 G, A,/4G,/<A,/B,/4A,/4G,/4 A,/>E,/C,/>E,/ | %146
 z ^C,2 C, D, z _B,/>A,/B,/>G,/ | %147
 C-C/4E,/4D,/4C,/4 A,/>G,/A,/>F,/ _B,-B,/4A,/4G,/4F,/4 E,/>F,/G,/>E,/ | ^CD A,2- A,A, ^E,D, | %149
 G,4 C,2- C,/>^C,/D,/>E,/ | F,^G,,A,,^F,, E,,/4B,,/4C,/4D,/4E, ^F,^G, | [A,C]2 [B,D]2 [CE]2 z G,- | %152
 G,A, E,2 !fermata!A,,2 z2 |[M:3/4] z4 z2 | A,, z C, z E, z | z/ ^G,/A,/B,/ C/E/D/E/ G,/E/D/E/ | %156
 A,/C/D/E/ F>^G, A,>F, | E,2- E,/^G,/B,/G,/ E,/G,/D,/G,/ | C,>E, A,,>B,, C,>E, | %159
 A,>A,, D,>E, F,>A, | D>D, G,>A, B,>D | G>G, C>D E>C | F>F, F>F, F2- | %163
 F/D/E/F/ E/D/C/B,/ A,/G,/F,/E,/ | D,>D,, D,>D,, D,2- | %165
 D,/B,,/C,/D,/ C,/B,,/A,,/G,,/ F,,/E,,/D,,/C,,/ | B,,,>^G,, A,,>C,, F,,>D,, | E,,2 z z/ A,/ ^G,>D | %168
 C2 z z/ B,/ C>A, | A,/4^G,/4A,/4G,/4A,/4G,/4A,/4G,/4 z z/ A,/ G,/D/B,/G,/ | %170
 A,/C/A,/E,/ G,/4F,/4G,/4F,/4G,/4F,/4G,/4F,/4 G,/4F,/4G,/4F,/4 E,/F,/ | %171
 E,/^G,/B,/G,/ z z/ G,/ A,>C | B,2 z z/ ^G,/ A,>^F, | E,4 z2 | A,, z C, z E, z | %175
 z/ ^G,/A,/B,/ C/E/D/E/ G,/E/D/E/ | A,/C/D/E/ F>^G, A,>F, | E,2- E,/^G,/B,/G,/ E,/G,/D,/G,/ | %178
 C,>E, A,,>B,, C,>E, | A,>A,, D,>E, F,>A, | D>D, G,>A, B,>D | G>G, C>D E>C | F>F, F>F, F2- | %183
 F/D/E/F/ E/D/C/B,/ A,/G,/F,/E,/ | D,>D,, D,>D,, D,2- | %185
 D,/B,,/C,/D,/ C,/B,,/A,,/G,,/ F,,/E,,/D,,/C,,/ | B,,,>^G,, A,,>C,, F,,>D,, | E,,2 z z/ A,/ ^G,>D | %188
 C2 z z/ B,/ C>A, | A,/4^G,/4A,/4G,/4A,/4G,/4A,/4G,/4 z z/ A,/ G,/D/B,/G,/ | %190
 A,/C/A,/E,/ G,/4F,/4G,/4F,/4G,/4F,/4G,/4F,/4 G,/4F,/4G,/4F,/4 E,/F,/ | %191
 E,/^G,/B,/G,/ z z/ G,/ A,>C | B,2 z z/ ^G,/ A,>^F, | E,4 z2 | E,, z E, z ^G, z | %195
 z/ ^G,/A,/B,/ C/E,/D,/C,/ B,,/D,/C,/B,,/ | A,,>C, D,>F, ^G,>B, | %197
 E/E,/^F,/^G,/ A,/C/E/C/ A,/C/=G,/^B,/ | F,2- F,/E,/D,/C,/ D,>F, | B,,>D, G,>F, E,>G, | %200
 C,>E, A,>G, F,>A, | B,,/E/D/C/ B,/D/E/F/ G,/D/C/B,/ | E>A,, A,>A,, A,2- | %203
 A,/F,/G,/A,/ G,/F,/E,/D,/ C,/B,,/A,,/G,,/ | F,,/A,,/G,,/F,,/ F,>F,, F,2- | %205
 F,/D,/E,/F,/ E,/D,/C,/B,,/ A,,/G,,/F,,/E,,/ | D,,>B,, C,>G,, A,,>F,, | %207
 G,,/F,/E,/D,/ G,,/E,/D,/C,/ G,,/D,/C,/B,,/ | G,,/C,/B,,/A,,/ B,,/G,,/A,,/B,,/ C,/G,,/B,,/C,/ | %209
 D,/G,,/A,,/B,,/ C,/E,/D,/C,/ B,,/A,,/G,,/F,,/ | E,,>E, F,>F,, G,,>G, | A,>A,, B,,>B, C>C, | %212
 D,>D E>E, F,>F | G,/B,/D/F/ E>G, F,>D | C>E, A,>F, G,>G,, | C,/C,,/E,,/G,,/ C,2- C,/E,/F,/G,/ | %216
 ^C,/E,/G,- G,/E,/F,/G,/ F,/E,/D,/C,/ | D,/D,,/F,,/A,,/ D,2- D,/F,/G,/A,/ | %218
 ^D,/^F,/A,- A,/F,/G,/A,/ G,/F,/E,/D,/ | E,/E,,/G,,/B,,/ E,2- E,/C,/D,/E,/ | %220
 F,/E,/F,/G,/ A,/B,/^C/D/ E>A, | D>A, C>A, B,>E, | A,>C, F,>^G,, A,,>F,, | %223
 E,,2- E,,^F,,/^G,,/ A,,/B,,/C,/D,/ | E,>E,, E,>E,, E,>E,, | E,>E,, E,>E,, E,>E,, | %226
 E,>C, D,>B,, C,>A,, | D,,2- D,,/E,,/^F,,/^G,,/ A,,/G,,/A,,/B,,/ | %228
 C,/B,,/C,/D,/ E,/D,/C,/D,/ E,>E,, | z2 A,2 z2 | E,, z E, z ^G, z | %231
 z/ ^G,/A,/B,/ C/E,/D,/C,/ B,,/D,/C,/B,,/ | A,,>C, D,>F, ^G,>B, | %233
 E/E,/^F,/^G,/ A,/C/E/C/ A,/C/=G,/^B,/ | F,2- F,/E,/D,/C,/ D,>F, | B,,>D, G,>F, E,>G, | %236
 C,>E, A,>G, F,>A, | B,,/E/D/C/ B,/D/E/F/ G,/D/C/B,/ | E>A,, A,>A,, A,2- | %239
 A,/F,/G,/A,/ G,/F,/E,/D,/ C,/B,,/A,,/G,,/ | F,,/A,,/G,,/F,,/ F,>F,, F,2- | %241
 F,/D,/E,/F,/ E,/D,/C,/B,,/ A,,/G,,/F,,/E,,/ | D,,>B,, C,>G,, A,,>F,, | %243
 G,,/F,/E,/D,/ G,,/E,/D,/C,/ G,,/D,/C,/B,,/ | G,,/C,/B,,/A,,/ B,,/G,,/A,,/B,,/ C,/G,,/B,,/C,/ | %245
 D,/G,,/A,,/B,,/ C,/E,/D,/C,/ B,,/A,,/G,,/F,,/ | E,,>E, F,>F,, G,,>G, | A,>A,, B,,>B, C>C, | %248
 D,>D E>E, F,>F | G,/B,/D/F/ E>G, F,>D | C>E, A,>F, G,>G,, | C,/C,,/E,,/G,,/ C,2- C,/E,/F,/G,/ | %252
 ^C,/E,/G,- G,/E,/F,/G,/ F,/E,/D,/C,/ | D,/D,,/F,,/A,,/ D,2- D,/F,/G,/A,/ | %254
 ^D,/^F,/A,- A,/F,/G,/A,/ G,/F,/E,/D,/ | E,/E,,/G,,/B,,/ E,2- E,/C,/D,/E,/ | %256
 F,/E,/F,/G,/ A,/B,/^C/D/ E>A, | D>A, C>A, B,>E, | A,>C, F,>^G,, A,,>F,, | %259
 E,,2- E,,^F,,/^G,,/ A,,/B,,/C,/D,/ | E,>E,, E,>E,, E,>E,, | E,>E,, E,>E,, E,>E,, | %262
 E,>C, D,>B,, C,>A,, | D,,2- D,,/E,,/^F,,/^G,,/ A,,/G,,/A,,/B,,/ | %264
 C,/B,,/C,/D,/ E,/D,/C,/D,/ E,>E,, | z2 A,2 z2 | z6 |[M:3/4] z2 z z z2 | %268
 z2 z A,/A,/4^G,/4 A,/4G,/4A,/4G,/4F,/4G,/4A,/ | E,(3F,/E,/D,/ E,E,, E,,E,, | %270
 E,(3F,/E,/D,/ E,E,, E,,E,, |[K:treble] E,(3F,/E,/D,/ E,[K:treble]E ^F^G | AA, A,[K:bass]A AA, | %273
[K:bass] EE, E,E EE, | F,E, D,G, CF, | G,G,, G,,G, G,G,, | G,G,, G,,G, G,G,, | %277
 G,G,, G,,G, (3F,/E,/F,/(3G,/F,/E,/ | F,D, E,C, G,G,, | C,G,, C,, z3 | %280
 z2 z A,/A,/4^G,/4 A,/4G,/4A,/4G,/4F,/4G,/4A,/ | E,(3F,/E,/D,/ E,E,, E,,E,, | %282
 E,(3F,/E,/D,/ E,E,, E,,E,, | E,(3F,/E,/D,/ E,E ^F^G | AA, A,A AA, | EE, E,E EE, | F,E, D,G, CF, | %287
 G,G,, G,,G, G,G,, | G,G,, G,,G, G,G,, | G,G,, G,,G, (3F,/E,/F,/(3G,/F,/E,/ | F,D, E,C, G,G,, | %291
 C,G,, C,, C/C/4B,/4 C/4B,/4C/4B,/4A,/4B,/4C/ | G,(3A,/G,/^F,/ G,G,, G,,G,, | %293
 G,,2 z D/D/4^C/4 D/4C/4D/4C/4B,/4C/4D/ | A,(3B,/A,/^G,/ A,A,, A,,A,, | %295
 A,,2 z A,/A,/4G,/4 A,/4G,/4A,/4G,/4F,/4G,/4A,/ | %296
 D,(3E,/D,/^C,/ D, D/D/4^C/4 D/4C/4D/4C/4B,/4C/4D/ | %297
 G,(3A,/G,/F,/ G, C/C/4_B,/4 C/4B,/4C/4B,/4A,/4B,/4C/ | F,(3G,/F,/E,/ F,_B, G,A, | %299
 D,A,, D,,(3A,/G,/F,/ (3F,/E,/D,/(3D,/C,/B,,/ | %300
 (3B,,/A,,/G,,/(3G,,/A,,/B,,/ (3B,,/C,/D,/(3D,/E,/F,/ G,G,, | %301
 (3C,/D,/E,/(3E,/F,/G,/ (3G,/A,/B,/C B,=A, | B,A, B,C DC | E,E,, E,,E, E,E,, | E,E,, E,,E, E,E,, | %305
 D,D,, D,,C (3B,/A,/B,/(3C/B,/A,/ | A,E, C,A,, E,E,, | %307
 A,,E, A, C/C/4B,/4 C/4B,/4C/4B,/4A,/4B,/4C/ | G,(3A,/G,/^F,/ G,G,, G,,G,, | %309
 G,,2 z D/D/4^C/4 D/4C/4D/4C/4B,/4C/4D/ | A,(3B,/A,/^G,/ A,A,, A,,A,, | %311
 A,,2 z A,/A,/4G,/4 A,/4G,/4A,/4G,/4F,/4G,/4A,/ | %312
 D,(3E,/D,/^C,/ D, D/D/4^C/4 D/4C/4D/4C/4B,/4C/4D/ | %313
 G,(3A,/G,/F,/ G, C/C/4_B,/4 C/4B,/4C/4B,/4A,/4B,/4C/ | F,(3G,/F,/E,/ F,_B, G,A, | %315
 D,A,, D,,(3A,/G,/F,/ (3F,/E,/D,/(3D,/C,/B,,/ | %316
 (3B,,/A,,/G,,/(3G,,/A,,/B,,/ (3B,,/C,/D,/(3D,/E,/F,/ G,G,, | %317
 (3C,/D,/E,/(3E,/F,/G,/ (3G,/A,/B,/C B,A, | B,A, B,C DC | E,E,, E,,E, E,E,, | E,E,, E,,E, E,E,, | %321
 D,D,, D,,C (3B,/A,/B,/(3C/B,/A,/ | A,E, C,A,, E,E,, | A,,E, !fermata!A, z3 | %324
[M:3/4] [A,,C,E,A,]2 z4 | A,B, C/4B,/4C/4B,/4A,/B,/ CA, | ^G,2 A,2 F,2 | %327
 E,^F, G,/4F,/4G,/4F,/4E,/F,/ ^G,E, | %328
 A,A,, z/[I:staff -1] A/G/F/[I:staff +1] z/[I:staff -1] G/F/E/ | %329
[I:staff +1] FF, z/[I:staff -1] F/E/D/[I:staff +1] z/[I:staff -1] E/D/C/ | %330
 D[I:staff +1]B, CA,/B,/ CD | EF ED CB, | A,A,, z/ A,/G,/F,/ E,/G,/E,/C,/ | F,F,, A,G, G,^F, | %334
 ^F,^F,, z/ F,/G,/A,/ G,/F,/E,/D,/ | G,G,, B,A, A,^G, | ^G,/F/E/D/ C/E/D/C/ B,/D/C/B,/ | %337
 A,2 G,2 ^F,2 | E,^F,/G,/ A,,2 B,,2 | E,,B,, E,D, C,B,, | [A,,C,E,A,]2 z4 | %341
 A,B, C/4B,/4C/4B,/4A,/B,/ CA, | ^G,2 A,2 F,2 | E,^F, G,/4F,/4G,/4F,/4E,/F,/ ^G,E, | %344
 A,A,, z/[I:staff -1] A/G/F/[I:staff +1] z/[I:staff -1] G/F/E/ | %345
[I:staff +1] FF, z/[I:staff -1] F/E/D/[I:staff +1] z/[I:staff -1] E/D/C/ | %346
 D[I:staff +1]B, CA,/B,/ CD | EF ED CB, | A,A,, z/ A,/G,/F,/ E,/G,/E,/C,/ | F,F,, A,G, G,^F, | %350
 ^F,^F,, z/ F,/G,/A,/ G,/F,/E,/D,/ | G,G,, B,A, A,^G, | ^G,/F/E/D/ C/E/D/C/ B,/D/C/B,/ | %353
 A,2 G,2 ^F,2 | E,^F,/G,/ A,,2 B,,2 | E,,2 B,,2 E,2 | E,4 z2 | ^G,2 G,2 G,2 | G,4 z2 | ^C2 C2 C2 | %360
 DD, z/[I:staff -1] d/c/_B/[I:staff +1] z/[I:staff -1] c/B/A/ | %361
 _B_B,[I:staff +1] z/[I:staff -1] B/A/G/[I:staff +1] z/[I:staff -1] A/G/F/ | %362
 G[I:staff +1]G, A,2 A,,2 | D,A,,/G,,/ F,,/G,,/A,, D,,2 | z/ D,/E,/F,/ G,/A,/B,/^C/ D/E/F/D/ | %365
 GD G,D, G,,2 | z/ C,/D,/E,/ F,/G,/A,/B,/ C/D/E/C/ | FC F,C, F,,2 | z B,, C,D, E,^F, | %369
 ^G,E, ^F,G, A,B, | CB, CD ^G,A, | ^G,/A,/B,- B,/A,/G,/^F,/ E,/D,/C,/B,,/ | C,C B,C, ^C,A, | %373
 D,D CD, ^D,B, | E,E DE, F,D | CB, A,F G,E | F,D E,^C D,2- | D,2 C,2 B,,2 | A,,B,,/C,/ D,,2 E,,2 | %379
 z2 E,2 A,2 | E,4 z2 | ^G,2 G,2 G,2 | G,4 z2 | ^C2 C2 C2 | %384
 DD, z/[I:staff -1] d/c/_B/[I:staff +1] z/[I:staff -1] c/B/A/ | %385
 _B_B,[I:staff +1] z/[I:staff -1] B/A/G/[I:staff +1] z/[I:staff -1] A/G/F/ | %386
 G[I:staff +1]G, A,2 A,,2 | D,A,,/G,,/ F,,/G,,/A,, D,,2 | z/ D,/E,/F,/ G,/A,/B,/^C/ D/E/F/D/ | %389
 GD G,D, G,,2 | z/ C,/D,/E,/ F,/G,/A,/B,/ C/D/E/C/ | FC F,C, F,,2 | z B,, C,D, E,^F, | %393
 ^G,E, ^F,G, A,B, | CB, CD ^G,A, | ^G,/A,/B,- B,/A,/G,/^F,/ E,/D,/C,/B,,/ | C,C B,C, ^C,A, | %397
 D,D CD, ^D,B, | E,E DE, F,D | CB, A,F G,E | F,D E,^C D,2- | D,2 C,2 B,,2 | A,,B,,/C,/ D,,2 E,,2 | %403
 z2 E,2 !fermata!A,2 |[M:2/4] z2 [A,,C,E,A,] z | [C,E,A,] z [E,^G,] z | A, z [A,,C,E,A,] z | %407
 [C,E,A,] z [E,^G,] z | A, z A,,A, | G,G,, F,,F, | E,E,, A,,F, | E,G,, F,,D, | C,E,, G,,C, | %413
 F,,A,, D,F,- | F,/E,/D,/C,/ B,,/A,,/G,,/F,,/ | E,,A,, F,,G,, | C,,2 [A,,C,E,A,] z | %417
 [C,E,A,] z [E,^G,] z | A, z [A,,C,E,A,] z | [C,E,A,] z [E,^G,] z | A, z A,,A, | G,G,, F,,F, | %422
 E,E,, A,,F, | E,G,, F,,D, | C,E,, G,,C, | F,,A,, D,F,- | F,/E,/D,/C,/ B,,/A,,/G,,/F,,/ | %427
 E,,A,, F,,G,, | C,,2 [C,E,G,C] z | [E,G,C] z [G,B,] z | C z [F,A,D] z | [G,_B,] z [^C,E,A,] z | %432
 [D,A,] z DD, | C,C _B,_B,, | A,,A, G,G,,- | G,,/E,/F,/G,/ A,A,, | D,/A,,/F,,/A,,/ D,,F,,/A,,/ | %437
 D,C, B,,A,, | G,,A,,/B,,/ C,/D,/E,/C,/ | F,E, D,C, | D,C, B,,A,, | B,,A,, ^G,,^F,, | %442
 ^G,,E, ^F,^G, | A,F, D,F, | E,D, [C,E,^G,A,] z | [B,,D,F,B,] z [A,,B,,D,F,] z | %446
 [^G,,B,,^^C,]/A,,/B,,/^B,,/ C,/E,/^F,/^G,/ | A,C, D,E, | A,,2 [C,E,G,C] z | [E,G,C] z [G,B,] z | %450
 C z [F,A,D] z | [G,_B,] z [^C,E,A,] z | [D,A,] z DD, | C,C _B,_B,, | A,,A, G,G,,- | %455
 G,,/E,/F,/G,/ A,A,, | D,/A,,/F,,/A,,/ D,,F,,/A,,/ | D,C, B,,A,, | G,,A,,/B,,/ C,/D,/E,/C,/ | %459
 F,E, D,C, | D,C, B,,A,, | B,,A,, ^G,,^F,, | ^G,,E, ^F,^G, | A,F, D,F, | E,D, [C,E,^G,A,] z | %465
 [B,,D,F,B,] z [A,,B,,D,F,] z | [^G,,B,,^^C,]/A,,/B,,/^B,,/ C,/E,/^F,/^G,/ | A,C, D,E, | %468
 !fermata!A,,2 z2 |[M:12/8] z8 z2 z z | z12 | z6 z3 z z A, | E,^G,B, E^DE ^F,A,B, EDE | %473
 G,B,[I:staff -1]^D E^FG A,GE =FAE | ^D3- D^CD E3- EB,=D | ^C3- CB,C D3- D[I:staff +1]A,=C | %476
 z6 z3 z z E, | A,,C,E, A,^G,A, B,,D,E, A,G,A, | C,E,^G, A,B,C D,CA, _B,DA, | %479
 ^G,2 B, G,2 E, A,,C,E, A,CA, | ^F,A,D D,F,A, G,,B,,D, G,B,G, | E,G,C C,E,G, ^F,,A,,C, ^F,A,F, | %482
 ^D,^F,B, B,,D,F, E,,G,,B,, E,D,E, | ^F,,A,,B,, E,^D,E, G,,B,,D, E,^F,G, | %484
 A,,G,E, F,A,E, ^D,3- D,^C,D, | E,,G,,B,, E,G,E, ^C,3- C,B,,C, | D,,F,,A,, D,F,D, B,,3- B,,A,,B,, | %487
 C,,E,,G,, C,E,C, F,,A,,C, F,A,F, | B,,D,F, B,DB, E,^G,B, E^GD | C6 D2 C B,3 | A,3- A,2 G, F,6 | %491
 E,2 z z3 A,,C,E, A,CA, | D,2 z z3 G,,B,,D, G,B,G, | C,2 A,, F,2 F,, E,,^G,,B,, E,2 z | z12 | %495
 z6 z3 z z A, | E,^G,B, E^DE ^F,A,B, EDE | G,B,[I:staff -1]^D E^FG A,GE =FAE | %498
 ^D3- D^CD E3- EB,=D | ^C3- CB,C D3- D[I:staff +1]A,=C | z6 z3 z z E, | %501
 A,,C,E, A,^G,A, B,,D,E, A,G,A, | C,E,^G, A,B,C D,CA, _B,DA, | ^G,2 B, G,2 E, A,,C,E, A,CA, | %504
 ^F,A,D D,F,A, G,,B,,D, G,B,G, | E,G,C C,E,G, ^F,,A,,C, ^F,A,F, | %506
 ^D,^F,B, B,,D,F, E,,G,,B,, E,D,E, | ^F,,A,,B,, E,^D,E, G,,B,,D, E,^F,G, | %508
 A,,G,E, F,A,E, ^D,3- D,^C,D, | E,,G,,B,, E,G,E, ^C,3- C,B,,C, | D,,F,,A,, D,F,D, B,,3- B,,A,,B,, | %511
 C,,E,,G,, C,E,C, F,,A,,C, F,A,F, | B,,D,F, B,DB, E,^G,B, E^GD | C6 D2 C B,3 | A,3- A,2 G, F,6 | %515
 E,2 z z3 A,,C,E, A,CA, | D,2 z z3 G,,B,,D, G,B,G, | C,2 A,, F,2 F,, E,,^G,,B,, E,2 B, | %518
 EB,^G, E,^D,E, DB,G, E,D,E, | CA,F, E,^G,A, F,D,B,, ^G,,E,D, | C,3- C,B,,C, ^C,3- C,B,,C, | %521
 D,3- D,E,^E, G,, z2 A,, z2 | D,,A,F, D,A,,C, B,,6- | B,,G,E, ^B,,^G,,=B,, A,,6- | %524
 A,,F,D, B,,^F,,A,, ^G,,3- G,,E,,G,, | A,,3- A,,F,,A,, B,,3- B,,G,,B,, | C,3- C,A,,^C, D,6- | %527
 D,3 C,3 B,,3 E,3 | A,,3 C,3 D,3 E,3 | A,,3 z3 z6 | G,,3 z3 z6 | ^F,,3 z3 z6 | %532
 E,,G,,B,, E,^D,E, A,,^C,E, A,^G,A, | D,,^F,,A,, D,^C,D, G,,B,,D, G,^F,G, | %534
 ^C,,E,,G,, ^C,B,,C, ^F,,^A,,C, ^F,^E,F, | D,3- D,^C,D, ^D,3- D,^B,,D, | E,3 E,^F,G, A, z2 B, z2 | %537
 E, z z z3 z6 | z6 z3 ^G,ED | ^B, z z A,^G,A, GE^C A,G,A, | FD_B, A,^CD B,G,E, ^C,A,G, | %541
 F,A,^C DA,F, D,F,^G, A,F,D, | B,,D,^G, A,,D,F, ^G,,B,,D, F,E,D, | %543
 C,B,,A,, E,2 E,, A,,^C,E, A,2 B, | EB,^G, E,^D,E, DB,G, E,D,E, | CA,F, E,^G,A, F,D,B,, ^G,,E,D, | %546
 C,3- C,B,,C, ^C,3- C,B,,C, | D,3- D,E,^E, G,, z2 A,, z2 | D,,A,F, D,A,,C, B,,6- | %549
 B,,G,E, ^B,,^G,,=B,, A,,6- | A,,F,D, B,,^F,,A,, ^G,,3- G,,E,,G,, | %551
 A,,3- A,,F,,A,, B,,3- B,,G,,B,, | C,3- C,A,,^C, D,6- | D,3 C,3 B,,3 E,3 | A,,3 C,3 D,3 E,3 | %555
 A,,3 z3 z6 | G,,3 z3 z6 | ^F,,3 z3 z6 | E,,G,,B,, E,^D,E, A,,^C,E, A,^G,A, | %559
 D,,^F,,A,, D,^C,D, G,,B,,D, G,^F,G, | ^C,,E,,G,, ^C,B,,C, ^F,,^A,,C, ^F,^E,F, | %561
 D,3- D,^C,D, ^D,3- D,^B,,D, | E,3 E,^F,G, A, z2 B, z2 | E, z z z3 z6 | z6 z3 ^G,ED | %565
 ^B, z z A,^G,A, GE^C A,G,A, | FD_B, A,^CD B,G,E, ^C,A,G, | F,A,^C DA,F, D,F,^G, A,F,D, | %568
 B,,D,^G, A,,D,F, ^G,,B,,D, F,E,D, | C,B,,A,, E,2 E,, A,,^C,E, !fermata!A,2 z |] %570
V:3
 x3 | x3 | x3 | x3 | x3 | x3 | x3 | x3 | x3 | x3 | x3 | x3 | x3 | x3 | x3 | x3 | x3 | x3 | x3 | %19
 x3 | x3 | x3 | x3 | x3 | x3 | x3 | x3 | x3 | x3 | x3 | x3 | x3 | x3 | x3 | x3 | x3 | x3 | x3 | %38
 x3 | x3 | x3 | x3 | x3 | x3 | x3 | x3 | x3 | x3 | x3 | x3 | x3 | x3 | x3 | x3 | x3 | x3 | x3 | %57
 x3 | x3 | x3 | x3 | x3 | x3 | x3 | x3 | x3 | x3 | x3 | x3 | x3 | x3 | x3 | x3 | x3 | x3 | x3 | %76
 x3 | x3 | x3 | x3 | x3 | x3 | x3 | x3 | x3 | x3 | x3 | x3 | x3 | x3 | x3 | x3 | x3 | x3 | x3 | %95
 x3 | x3 | x3 | x3 | x3 | x3 | x3 | x3 | x3 | x3 | x3 | x3 | x3 | x3 | x3 | x3 | x3 | x3 | x3 | %114
 x3 | x3 | x3 | x3 | x3 | x3 |[M:4/4] x8 | z4 ^G- G- G z | z/4 B/4A/4^G/<A/E/4 F>D DC z3/4 E-E/4 | %123
 ^FD z3/4 F-F/4 ^GE z3/4 d/4-d- | d/4d/4c/4B/4c B2 z4 | z2 z/ c/d/>A/ B2 z2 | %126
 z[I:staff +1] E[I:staff -1] A>G ^F/4G/4F/4E/4F/4^D/4E/4F/4 z F | %127
 z2 z/4 A/4B/4c/4(4:3:4c/4B/4c/4B/4A/4 G2 z/4 e/4^f/4g/4(4:3:4g/4f/4g/4f/4e/4 | %128
 ^d>e c/4B/4A/-A A^G z2 | z4 ^G- G- G z | z/4 B/4A/4^G/<A/E/4 F>D DC z3/4 E-E/4 | %131
 ^FD z3/4 F-F/4 ^GE z3/4 d/4-d- | d/4d/4c/4B/4c B2 z4 | z2 z/ c/d/>A/ B2 z2 | %134
 z[I:staff +1] E[I:staff -1] A>G ^F/4G/4F/4E/4F/4^D/4E/4F/4 z F | %135
 z2 z/4 A/4B/4c/4(4:3:4c/4B/4c/4B/4A/4 G2 z/4 e/4^f/4g/4(4:3:4g/4f/4g/4f/4e/4 | %136
 ^d>e c/4B/4A/-A A^G x2 | z2[I:staff +1] B,2[I:staff -1] c2 z2 | %138
 z2[I:staff +1] E,2[I:staff -1] f2 z3/4 d/4-d | z c- c/4e/4d/4c/4f/4g/4a/- a2 z3/4 =B/4-B | %140
 A2 G2- G/4G/4F/4E/4F/4G/4A/4F/4 D/4F/4A/4B/4=c/4B/4A/4c/4 | z2 z/ c/d/>B/ G2- G/4G/4=F/4E/<F/D/4 | %142
 B,E E/4A/4B/4c/4^D z z/4 F/4E/4=D/4 z/4 F/4E/4D/4 z/4 F/4E/4D/4 | z4 z2 ^d2 | z2 ED DC z2 | %145
 z2[I:staff +1] B,2[I:staff -1] c2 z2 | z2[I:staff +1] E,2[I:staff -1] f2 z3/4 d/4-d | %147
 z c- c/4e/4d/4c/4f/4g/4a/- a2 z3/4 =B/4-B | %148
 A2 G2- G/4G/4F/4E/4F/4G/4A/4F/4 D/4F/4A/4B/4=c/4B/4A/4c/4 | z2 z/ c/d/>B/ G2- G/4G/4=F/4E/<F/D/4 | %150
 B,E E/4A/4B/4c/4^D z z/4 F/4E/4=D/4 z/4 F/4E/4D/4 z/4 F/4E/4D/4 | z4 z2 ^d2 | z2 ED DC x2 | %153
[M:3/4] x6 | x6 | x6 | x6 | x6 | x6 | x6 | x6 | x6 | x6 | x6 | x6 | x6 | x6 | x6 | x6 | x6 | x6 | %171
 x6 | x6 | ^G,2- G,2 z2 | x6 | x6 | x6 | x6 | x6 | x6 | x6 | x6 | x6 | x6 | x6 | x6 | x6 | x6 | %188
 x6 | x6 | x6 | x6 | x6 | ^G,2- G,2 x2 | x6 | x6 | x6 | x6 | x6 | x6 | x6 | x6 | x6 | x6 | x6 | %205
 x6 | x6 | x6 | x6 | x6 | x6 | x6 | x6 | x6 | x6 | x6 | x6 | x6 | x6 | x6 | x6 | x6 | x6 | x6 | %224
 x6 | x6 | x6 | x6 | x6 | AE/C/- C2 z2 | x6 | x6 | x6 | x6 | x6 | x6 | x6 | x6 | x6 | x6 | x6 | %241
 x6 | x6 | x6 | x6 | x6 | x6 | x6 | x6 | x6 | x6 | x6 | x6 | x6 | x6 | x6 | x6 | x6 | x6 | x6 | %260
 x6 | x6 | x6 | x6 | x6 | AE/C/- C2 x2 | x6 |[M:3/4] x6 | z2 z C B,C | A^G z C B,C | x3 C B,C | %271
 A^G z G AB | c6- | c(3d/c/B/ c(3e/d/c/ c/g/_B | A2 z B c2 | x3 e de | B2 z2 z2 | x3 e de | %278
 B2 z A GF | E3 z3 | z2 z C B,C | A^G z C B,C | x3 C B,C | A^G z G AB | c6- | %285
 c(3d/c/B/ c(3e/d/c/ c/g/_B | A2 z B c2 | x3 e de | B2 z2 z2 | x3 e de | B2 z A GF | E3 z z2 | %292
 z2 z (3e/d/c/ (3d/c/B/(3c/B/A/ | (3B/A/G/(3c/B/A/ B z z2 | z2 z A GF | %295
 E^G A(3A/B/^c/ (3c/d/e/(3e/f/g/ | (3f/e/f/(3g/f/e/ f4- | f2 e4- | e2 dF GE | F3 d cB | d3 d cB | %301
 c2 z[I:staff +1] E DC | x6 | B,[I:staff -1] z z A ^GA | B2 z ^G AB | ^G2 z e de | B2 z F ED | %307
 C3 z z2 | z2 z (3e/d/c/ (3d/c/B/(3c/B/A/ | (3B/A/G/(3c/B/A/ B z z2 | z2 z A GF | %311
 E^G A(3A/B/^c/ (3c/d/e/(3e/f/g/ | (3f/e/f/(3g/f/e/ f4- | f2 e4- | e2 dF GE | F3 d cB | d3 d cB | %317
 c2 z[I:staff +1] E DC | x6 | B,[I:staff -1] z z A ^GA | B2 z ^G AB | ^G2 z e de | B2 z F ED | %323
 !fermata!C3 x3 |[M:3/4] x6 | x6 | x6 | x6 | x6 | x6 | F2 E2 z2 | x6 | %332
 z E/F/ G/4F/4G/4F/4G/4F/4E/4F/4 GC | A2 z2 z2 | z A/B/ c/4B/4c/4B/4c/4B/4A/4B/4 cF | x6 | %336
 z ^G AB cd | e[I:staff +1] ^F2 E2 ^D | E2[I:staff -1] z c2 B | A2 ^G4 | x6 | x6 | x6 | x6 | x6 | %345
 x6 | F2 E2 z2 | x6 | z E/F/ G/4F/4G/4F/4G/4F/4E/4F/4 GC | A2 z2 z2 | %350
 z A/B/ c/4B/4c/4B/4c/4B/4A/4B/4 cF | x6 | z ^G AB cd | e[I:staff +1] ^F2 E2 ^D | %354
 E2[I:staff -1] z c2 B | A2 ^G4 |[I:staff +1] ^G,A, B,/4A,/4B,/4A,/4G,/A,/ B,[I:staff -1] z | %357
[I:staff +1] B,2 B,2 B,2 |[I:staff -1] EF G/4F/4G/4F/4E/F/ G z |[I:staff +1] E2 E2 E2 | %360
 D2[I:staff -1] f2 e2 | x6 | _B2 AG FE | F6 | z d ^cd Ad- | d z z4 | z c Bc Gc- | c z z4 | x6 | %369
 x6 | x6 | x6 | x6 | x6 | x6 | x6 | z4 z[I:staff +1] D | ^G, B,2 A,2 G, | A,2[I:staff -1] z F2 E | %379
 D2 C4 |[I:staff +1] ^G,A, B,/4A,/4B,/4A,/4G,/A,/ B,[I:staff -1] z |[I:staff +1] B,2 B,2 B,2 | %382
[I:staff -1] EF G/4F/4G/4F/4E/F/ G z |[I:staff +1] E2 E2 E2 | D2[I:staff -1] f2 e2 | x6 | %386
 _B2 AG FE | F6 | z d ^cd Ad- | d z z4 | z c Bc Gc- | c z z4 | x6 | x6 | x6 | x6 | x6 | x6 | x6 | %399
 x6 | z4 z[I:staff +1] D | ^G, B,2 A,2 G, | A,2[I:staff -1] z F2 E | D2 !fermata!C4 |[M:2/4] x4 | %405
 x4 | x4 | x4 | x4 | x4 | x4 | x4 | x4 | x4 | x4 | x4 | x4 | x4 | x4 | x4 | x4 | x4 | x4 | x4 | %424
 x4 | x4 | x4 | x4 | x4 | x4 | x4 | x4 | x4 | x4 | x4 | x4 | x4 | x4 | x4 | x4 | x4 | x4 | x4 | %443
 x4 | x4 | x4 | x4 | x4 | x4 | x4 | x4 | x4 | x4 | x4 | x4 | x4 | x4 | x4 | x4 | x4 | x4 | x4 | %462
 x4 | x4 | x4 | x4 | x4 | x4 | x4 |[M:12/8] x12 | x12 | x12 | x12 | x12 | x12 | x12 | %476
[I:staff +1] B,2 C B,2 A, ^G,2 B, G,3 | A,2[I:staff -1] ^G A3- A2 G B3- | BAB c3- cA^c df=c | %479
 B6 z AE CEA | D z z z3 z GD B,DG | C z z z3 z ^FE ^DEF | B, z z z3 G3- G^FG | A3- ABc B3- B^de | %484
 c6- cBA B^fA | G6- GAG AeG | F6- FGF GdF | E6 E2 A, D3- | DFA ^GBA B2 z z3 | %489
 z3[I:staff +1] E3 F2 E D3 | E2 B, C2 E A,3 D3- | D^G,B,[I:staff -1] E^GE A2 z z3 | %492
 z[I:staff +1] F,A,[I:staff -1] DFD G2 z z3 | z z c B A2- A/c/B/A/^G/^F/ E2 E | x12 | x12 | x12 | %497
 x12 | x12 | x12 |[I:staff +1] B,2 C B,2 A, ^G,2 B, G,3 | A,2[I:staff -1] ^G A3- A2 G B3- | %502
 BAB c3- cA^c df=c | B6 z AE CEA | D z z z3 z GD B,DG | C z z z3 z ^FE ^DEF | B, z z z3 G3- G^FG | %507
 A3- ABc B3- B^de | c6- cBA B^fA | G6- GAG AeG | F6- FGF GdF | E6 E2 A, D3- | DFA ^GBA B2 z z3 | %513
 z3[I:staff +1] E3 F2 E D3 | E2 B, C2 E A,3 D3- | D^G,B,[I:staff -1] E^GE A2 z z3 | %516
 z[I:staff +1] F,A,[I:staff -1] DFD G2 z z3 | z z c B A2- A/c/B/A/^G/^F/ E2 z | x12 | x12 | x12 | %521
 x12 | x12 | x12 | x12 | x12 |[I:staff +1] E,^G,A, CE=G, F,A,_B, DFA, | ^G,3 A,6 G,3 | %528
[I:staff -1] A,3 z3 z3[I:staff +1] B,3- | B,C,E, A,B,C DA,B, ^F,G,A,- | %530
 A,B,,D, G,A,B, CG,A, E,^F,G,- | G,A,,C, ^F,G,A, B,F,G, ^D,E,F,- | %532
 F,[I:staff -1]EB,[I:staff +1] G,^F,G,[I:staff -1] z ED ^CB,C- | %533
 CDA,[I:staff +1] ^F,^E,F,[I:staff -1] z D^C B,^A,B,- | %534
 B,^C^A,[I:staff +1] E,^D,E,[I:staff -1] ECB,[I:staff +1] A,^G,A, | %535
 F,3[I:staff -1] z3[I:staff +1] B,3[I:staff -1] z3 |[I:staff +1] B,2[I:staff -1] z z3 z3 z z B | %537
 eBG E^DE dB^G EDE | cAF E^GA FD[I:staff +1]B,[I:staff -1] z z E | %539
 AEC z Bc d/4^c/4d/4c/4d/4c/4d/4c/4d/4c/4d/4c/4 d/4c/4d/4c/4Bc | d3- def e3- e^ce | %541
 A3- A2 ^c d3- d2 A | d2 d d2 B B2 ^G G2 G | A3- A2 ^G A/F/E/D/^C/B,/ A,2 z | x12 | x12 | x12 | %547
 x12 | x12 | x12 | x12 | x12 |[I:staff +1] E,^G,A, CE=G, F,A,_B, DFA, | ^G,3 A,6 G,3 | %554
[I:staff -1] A,3 z3 z3[I:staff +1] B,3- | B,C,E, A,B,C DA,B, ^F,G,A,- | %556
 A,B,,D, G,A,B, CG,A, E,^F,G,- | G,A,,C, ^F,G,A, B,F,G, ^D,E,F,- | %558
 F,[I:staff -1]EB,[I:staff +1] G,^F,G,[I:staff -1] z ED ^CB,C- | %559
 CDA,[I:staff +1] ^F,^E,F,[I:staff -1] z D^C B,^A,B,- | %560
 B,^C^A,[I:staff +1] E,^D,E,[I:staff -1] ECB,[I:staff +1] A,^G,A, | %561
 F,3[I:staff -1] z3[I:staff +1] B,3[I:staff -1] z3 |[I:staff +1] B,2[I:staff -1] z z3 z3 z z B | %563
 eBG E^DE dB^G EDE | cAF E^GA FD[I:staff +1]B,[I:staff -1] z z E | %565
 AEC z Bc d/4^c/4d/4c/4d/4c/4d/4c/4d/4c/4d/4c/4 d/4c/4d/4c/4Bc | d3- def e3- e^ce | %567
 A3- A2 ^c d3- d2 A | d2 d d2 B B2 ^G G2 G | A3- A2 ^G A/F/E/D/^C/B,/ !fermata!A,2 z |] %570
V:4
 x3 | x3 | x3 | x3 | x3 | x3 | x3 | x3 | x3 | x3 | x3 | x3 | x3 | x3 | x3 | x3 | x3 | x3 | x3 | %19
 x3 | x3 | x3 | x3 | x3 | x3 | x3 | x3 | x3 | x3 | x3 | x3 | x3 | x3 | x3 | x3 | x3 | x3 | x3 | %38
 x3 | x3 | x3 | x3 | x3 | x3 | x3 | x3 | x3 | x3 | x3 | x3 | x3 | x3 | x3 | x3 | x3 | x3 | x3 | %57
 x3 | x3 | x3 | x3 | x3 | x3 | x3 | x3 | x3 | x3 | x3 | x3 | x3 | x3 | x3 | x3 | x3 | x3 | x3 | %76
 x3 | x3 | x3 | x3 | x3 | x3 | x3 | x3 | x3 | x3 | x3 | x3 | x3 | x3 | x3 | x3 | x3 | x3 | x3 | %95
 x3 | x3 | x3 | x3 | x3 | x3 | x3 | x3 | x3 | x3 | x3 | x3 | x3 | x3 | x3 | x3 | x3 | x3 | x3 | %114
 x3 | x3 | x3 | x3 | x3 | x3 |[M:4/4] x8 | z4 z/ B/- B- B z | x8 | ^F/G/4A/4-A z2 ^G/A/4B/4-B z2 | %124
 x8 | x8 | x8 | x8 | z4 B2 z2 | z4 z/ B/- B- B z | x8 | ^F/G/4A/4-A z2 ^G/A/4B/4-B z2 | x8 | x8 | %134
 x8 | x8 | z4 B2 x2 | z4 c/d/4e/4-e z2 | x8 | e/f/4g/4- g z2 d/e/4f/4- f z2 | x8 | x8 | x8 | x8 | %144
 z4 E2 z2 | z4 c/d/4e/4-e z2 | x8 | e/f/4g/4- g z2 d/e/4f/4- f z2 | x8 | x8 | x8 | x8 | z4 E2 x2 | %153
[M:3/4] x6 | x6 | x6 | x6 | x6 | x6 | x6 | x6 | x6 | x6 | x6 | x6 | x6 | x6 | x6 | x6 | x6 | x6 | %171
 x6 | x6 | z/ B,3/2- B,2 z2 | x6 | x6 | x6 | x6 | x6 | x6 | x6 | x6 | x6 | x6 | x6 | x6 | x6 | x6 | %188
 x6 | x6 | x6 | x6 | x6 | z/ B,3/2- B,2 x2 | x6 | x6 | x6 | x6 | x6 | x6 | x6 | x6 | x6 | x6 | x6 | %205
 x6 | x6 | x6 | x6 | x6 | x6 | x6 | x6 | x6 | x6 | x6 | x6 | x6 | x6 | x6 | x6 | x6 | x6 | x6 | %224
 x6 | x6 | x6 | x6 | x6 | z E- E2 z2 | x6 | x6 | x6 | x6 | x6 | x6 | x6 | x6 | x6 | x6 | x6 | x6 | %242
 x6 | x6 | x6 | x6 | x6 | x6 | x6 | x6 | x6 | x6 | x6 | x6 | x6 | x6 | x6 | x6 | x6 | x6 | x6 | %261
 x6 | x6 | x6 | x6 | z E- E2 x2 | x6 |[M:3/4] x6 | x6 | x6 | x6 | x6 | x6 | x6 | x6 | x6 | x6 | %277
 x6 | x6 | x6 | x6 | x6 | x6 | x6 | x6 | x6 | x6 | x6 | x6 | x6 | x6 | x6 | x6 | x6 | x6 | x6 | %296
 x6 | x6 | x6 | x6 | x6 | x6 | x6 | x6 | x6 | x6 | x6 | x6 | x6 | x6 | x6 | x6 | x6 | x6 | x6 | %315
 x6 | x6 | x6 | x6 | x6 | x6 | x6 | x6 | x6 |[M:3/4] x6 | x6 | x6 | x6 | x6 | x6 | x6 | x6 | x6 | %333
 x6 | x6 | x6 | x6 | x6 | x6 | x6 | x6 | x6 | x6 | x6 | x6 | x6 | x6 | x6 | x6 | x6 | x6 | x6 | %352
 x6 | x6 | x6 | x6 | x6 | x6 | x6 | x6 | x6 | x6 | x6 | x6 | x6 | x6 | x6 | x6 | x6 | x6 | x6 | %371
 x6 | x6 | x6 | x6 | x6 | x6 | x6 | x6 | x6 | x6 | x6 | x6 | x6 | x6 | x6 | x6 | x6 | x6 | x6 | %390
 x6 | x6 | x6 | x6 | x6 | x6 | x6 | x6 | x6 | x6 | x6 | x6 | x6 | x6 |[M:2/4] x4 | x4 | x4 | x4 | %408
 x4 | x4 | x4 | x4 | x4 | x4 | x4 | x4 | x4 | x4 | x4 | x4 | x4 | x4 | x4 | x4 | x4 | x4 | x4 | %427
 x4 | x4 | x4 | x4 | x4 | x4 | x4 | x4 | x4 | x4 | x4 | x4 | x4 | x4 | x4 | x4 | x4 | x4 | x4 | %446
 x4 | x4 | x4 | x4 | x4 | x4 | x4 | x4 | x4 | x4 | x4 | x4 | x4 | x4 | x4 | x4 | x4 | x4 | x4 | %465
 x4 | x4 | x4 | x4 |[M:12/8] x12 | x12 | x12 | x12 | x12 | x12 | x12 | x12 | x12 | x12 | x12 | %480
 x12 | x12 | x12 | x12 | x12 | x12 | x12 | x12 | x12 | x12 | x12 | x12 | x12 | x12 | x12 | x12 | %496
 x12 | x12 | x12 | x12 | x12 | x12 | x12 | x12 | x12 | x12 | x12 | x12 | x12 | x12 | x12 | x12 | %512
 x12 | x12 | x12 | x12 | x12 | x12 | x12 | x12 | x12 | x12 | x12 | x12 | x12 | x12 | x12 | x12 | %528
 x12 | x12 | x12 | x12 | x12 | x12 | x12 | x12 | x12 | x12 | x12 | x12 | x12 | x12 | x12 | x12 | %544
 x12 | x12 | x12 | x12 | x12 | x12 | x12 | x12 | x12 | x12 | x12 | x12 | x12 | x12 | x12 | x12 | %560
 x12 | x12 | x12 | x12 | x12 | x12 | x12 | x12 | x12 | x12 |] %570
V:5
 x3 | x3 | x3 | x3 | x3 | x3 | x3 | x3 | x3 | x3 | x3 | x3 | x3 | x3 | x3 | x3 | x3 | x3 | x3 | %19
 x3 | x3 | x3 | x3 | x3 | x3 | x3 | x3 | x3 | x3 | x3 | x3 | x3 | x3 | x3 | x3 | x3 | x3 | x3 | %38
 x3 | x3 | x3 | x3 | x3 | x3 | x3 | x3 | x3 | x3 | x3 | x3 | x3 | x3 | x3 | x3 | x3 | x3 | x3 | %57
 x3 | x3 | x3 | x3 | x3 | x3 | x3 | x3 | x3 | x3 | x3 | x3 | x3 | x3 | x3 | x3 | x3 | x3 | x3 | %76
 x3 | x3 | x3 | x3 | x3 | x3 | x3 | x3 | x3 | x3 | x3 | x3 | x3 | x3 | x3 | x3 | x3 | x3 | x3 | %95
 x3 | x3 | x3 | x3 | x3 | x3 | x3 | x3 | x3 | x3 | x3 | x3 | x3 | x3 | x3 | x3 | x3 | x3 | x3 | %114
 x3 | x3 | x3 | x3 | x3 | x3 |[M:4/4] x8 | z4 z E- E z | x8 | x8 | x8 | x8 | x8 | x8 | x8 | %129
 z4 z E- E z | x8 | x8 | x8 | x8 | x8 | x8 | x8 | x8 | x8 | x8 | x8 | x8 | x8 | x8 | x8 | x8 | x8 | %147
 x8 | x8 | x8 | x8 | x8 | x8 |[M:3/4] x6 | x6 | x6 | x6 | x6 | x6 | x6 | x6 | x6 | x6 | x6 | x6 | %165
 x6 | x6 | x6 | x6 | x6 | x6 | x6 | x6 | x6 | x6 | x6 | x6 | x6 | x6 | x6 | x6 | x6 | x6 | x6 | %184
 x6 | x6 | x6 | x6 | x6 | x6 | x6 | x6 | x6 | x6 | x6 | x6 | x6 | x6 | x6 | x6 | x6 | x6 | x6 | %203
 x6 | x6 | x6 | x6 | x6 | x6 | x6 | x6 | x6 | x6 | x6 | x6 | x6 | x6 | x6 | x6 | x6 | x6 | x6 | %222
 x6 | x6 | x6 | x6 | x6 | x6 | x6 | x6 | x6 | x6 | x6 | x6 | x6 | x6 | x6 | x6 | x6 | x6 | x6 | %241
 x6 | x6 | x6 | x6 | x6 | x6 | x6 | x6 | x6 | x6 | x6 | x6 | x6 | x6 | x6 | x6 | x6 | x6 | x6 | %260
 x6 | x6 | x6 | x6 | x6 | x6 | x6 |[M:3/4] x6 | x6 | x6 | x6 | x6 | x6 | x6 | x6 | x6 | x6 | x6 | %278
 x6 | x6 | x6 | x6 | x6 | x6 | x6 | x6 | x6 | x6 | x6 | x6 | x6 | x6 | x6 | x6 | x6 | x6 | x6 | %297
 x6 | x6 | x6 | x6 | x6 | x6 | x6 | x6 | x6 | x6 | x6 | x6 | x6 | x6 | x6 | x6 | x6 | x6 | x6 | %316
 x6 | x6 | x6 | x6 | x6 | x6 | x6 | x6 |[M:3/4] x6 | x6 | x6 | x6 | x6 | x6 | x6 | x6 | x6 | x6 | %334
 x6 | x6 | x6 | x6 | x6 | x6 | x6 | x6 | x6 | x6 | x6 | x6 | x6 | x6 | x6 | x6 | x6 | x6 | x6 | %353
 x6 | x6 | x6 | x6 | x6 | x6 | x6 | x6 | x6 | x6 | x6 | x6 | x6 | x6 | x6 | x6 | x6 | x6 | x6 | %372
 x6 | x6 | x6 | x6 | x6 | x6 | x6 | x6 | x6 | x6 | x6 | x6 | x6 | x6 | x6 | x6 | x6 | x6 | x6 | %391
 x6 | x6 | x6 | x6 | x6 | x6 | x6 | x6 | x6 | x6 | x6 | x6 | x6 |[M:2/4] x4 | x4 | x4 | x4 | x4 | %409
 x4 | x4 | x4 | x4 | x4 | x4 | x4 | x4 | x4 | x4 | x4 | x4 | x4 | x4 | x4 | x4 | x4 | x4 | x4 | %428
 x4 | x4 | x4 | x4 | x4 | x4 | x4 | x4 | x4 | x4 | x4 | x4 | x4 | x4 | x4 | x4 | x4 | x4 | x4 | %447
 x4 | x4 | x4 | x4 | x4 | x4 | x4 | x4 | x4 | x4 | x4 | x4 | x4 | x4 | x4 | x4 | x4 | x4 | x4 | %466
 x4 | x4 | x4 |[M:12/8] x12 | x12 | x12 | x12 | x12 | x12 | x12 | x12 | x12 | x12 | x12 | x12 | %481
 x12 | x12 | x12 | x12 | x12 | x12 | x12 | x12 | x12 | x12 | x12 | x12 | x12 | x12 | x12 | x12 | %497
 x12 | x12 | x12 | x12 | x12 | x12 | x12 | x12 | x12 | x12 | x12 | x12 | x12 | x12 | x12 | x12 | %513
 x12 | x12 | x12 | x12 | x12 | x12 | x12 | x12 | x12 | x12 | x12 | x12 | x12 | x12 | x12 | x12 | %529
 x12 | x12 | x12 | x12 | x12 | x12 | x12 | x12 | x12 | x12 | x12 | x12 | x12 | x12 | x12 | x12 | %545
 x12 | x12 | x12 | x12 | x12 | x12 | x12 | x12 | x12 | x12 | x12 | x12 | x12 | x12 | x12 | x12 | %561
 x12 | x12 | x12 | x12 | x12 | x12 | x12 | x12 | x12 |] %570
V:6
 x3 | x3 | x3 | x3 | x3 | x3 | x3 | x3 | x3 | x3 | x3 | x3 | x3 | x3 | x3 | x3 | x3 | x3 | x3 | %19
 x3 | x3 | x3 | x3 | x3 | x3 | x3 | x3 | x3 | x3 | x3 | x3 | x3 | x3 | x3 | x3 | x3 | x3 | x3 | %38
 x3 | x3 | x3 | x3 | x3 | x3 | x3 | x3 | x3 | x3 | x3 | x3 | x3 | x3 | x3 | x3 | x3 | x3 | x3 | %57
 x3 | x3 | x3 | x3 | x3 | x3 | x3 | x3 | x3 | x3 | x3 | x3 | x3 | x3 | x3 | x3 | x3 | x3 | x3 | %76
 x3 | x3 | x3 | x3 | x3 | x3 | x3 | x3 | x3 | x3 | x3 | x3 | x3 | x3 | x3 | x3 | x3 | x3 | x3 | %95
 x3 | x3 | x3 | x3 | x3 | x3 | x3 | x3 | x3 | x3 | x3 | x3 | x3 | x3 | x3 | x3 | x3 | x3 | x3 | %114
 x3 | x3 | x3 | x3 | x3 | x3 |[M:4/4] x8 | x8 | x8 | x8 | %124
 C,F,- F,E, A,/>E,/D,/4C,/4D,/4E,/4 A,,/>A,/=G,/>F,/ | %125
 E,2 ^F,2 G,2- G,/4A,/4G,/4F,/4G,/4E,/4G,/4B,/4 | x8 | G,2 ^F,2 z/ B,/G,/>B,/ z2 | %128
 z2 B,B,, E,,2 z2 | x8 | x8 | x8 | C,F,- F,E, A,/>E,/D,/4C,/4D,/4E,/4 A,,/>A,/=G,/>F,/ | %133
 E,2 ^F,2 G,2- G,/4A,/4G,/4F,/4G,/4E,/4G,/4B,/4 | x8 | G,2 ^F,2 z/ B,/G,/>B,/ z2 | %136
 z2 B,B,, E,,2 x2 | E,3 E, A, z z2 | A,,3 A,, D,-D,/4F,/4E,/4D,/4 z2 | x8 | z2 A,A,, D,2 z2 | %141
 z D,B,,G,, C, z z2 | z4 E,,E,- E,2- | E,E,- E,E,- E,A, ^F,/>A,/^G,/>=F,/- | F,E, E,E,, A,,,2 z2 | %145
 E,3 E, A, z z2 | A,,3 A,, D,-D,/4F,/4E,/4D,/4 z2 | x8 | z2 A,A,, D,2 z2 | z D,B,,G,, C, z z2 | %150
 z4 E,,E,- E,2- | E,E,- E,E,- E,A, ^F,/>A,/^G,/>=F,/- | F,E, E,E,, A,,,2 x2 |[M:3/4] x6 | x6 | x6 | %156
 x6 | x6 | x6 | x6 | x6 | x6 | x6 | x6 | x6 | x6 | x6 | x6 | x6 | x6 | x6 | z2 E,4- | %172
 E,/^G,/B,/G,/ E,4 | z2 E,,2 z2 | x6 | x6 | x6 | x6 | x6 | x6 | x6 | x6 | x6 | x6 | x6 | x6 | x6 | %187
 x6 | x6 | x6 | x6 | z2 E,4- | E,/^G,/B,/G,/ E,4 | z2 E,,2 x2 | x6 | x6 | x6 | x6 | x6 | x6 | x6 | %201
 x6 | x6 | x6 | x6 | x6 | x6 | x6 | x6 | x6 | x6 | x6 | x6 | x6 | x6 | x6 | x6 | x6 | x6 | x6 | %220
 x6 | x6 | x6 | x6 | x6 | x6 | x6 | x6 | x6 | A,,4 z2 | x6 | x6 | x6 | x6 | x6 | x6 | x6 | x6 | %238
 x6 | x6 | x6 | x6 | x6 | x6 | x6 | x6 | x6 | x6 | x6 | x6 | x6 | x6 | x6 | x6 | x6 | x6 | x6 | %257
 x6 | x6 | x6 | x6 | x6 | x6 | x6 | x6 | A,,4 x2 | x6 |[M:3/4] x6 | x6 | x6 | x6 | %271
[K:treble] x3[K:treble] x3 | x3[K:bass] x3 |[K:bass] x6 | x6 | x6 | x6 | x6 | x6 | x6 | x6 | x6 | %282
 x6 | x6 | x6 | x6 | x6 | x6 | x6 | x6 | x6 | x6 | x6 | x6 | x6 | x6 | x6 | x6 | x6 | x6 | x6 | %301
 x3 _A, ^F,_A, | ^G,^F, G,A, =F,D, | x6 | x6 | x6 | x6 | A,,3 z z2 | x6 | x6 | x6 | x6 | x6 | x6 | %314
 x6 | x6 | x6 | x6 | ^G,^F, G,A, =F,D, | x6 | x6 | x6 | x6 | !fermata!A,,3 x3 |[M:3/4] x6 | x6 | %326
 x6 | x6 | x6 | x6 | x6 | x6 | x6 | x6 | x6 | x6 | x6 | x6 | x6 | x6 | x6 | x6 | x6 | x6 | x6 | %345
 x6 | x6 | x6 | x6 | x6 | x6 | x6 | x6 | x6 | x6 | x6 | x6 | x6 | x6 | x6 | x6 | x6 | x6 | x6 | %364
 x6 | x6 | x6 | x6 | x6 | x6 | x6 | x6 | x6 | x6 | x6 | x6 | x6 | x6 | x6 | A,,6 | x6 | x6 | x6 | %383
 x6 | x6 | x6 | x6 | x6 | x6 | x6 | x6 | x6 | x6 | x6 | x6 | x6 | x6 | x6 | x6 | x6 | x6 | x6 | %402
 x6 | !fermata!A,,6 |[M:2/4] x4 | x4 | x4 | x4 | x4 | x4 | x4 | x4 | x4 | x4 | x4 | x4 | x4 | x4 | %418
 x4 | x4 | x4 | x4 | x4 | x4 | x4 | x4 | x4 | x4 | x4 | x4 | x4 | x4 | x4 | x4 | x4 | x4 | x4 | %437
 x4 | x4 | x4 | x4 | x4 | x4 | x4 | x4 | x4 | x4 | x4 | x4 | x4 | x4 | x4 | x4 | x4 | x4 | x4 | %456
 x4 | x4 | x4 | x4 | x4 | x4 | x4 | x4 | x4 | x4 | x4 | x4 | x4 |[M:12/8] x12 | x12 | x12 | x12 | %473
 x12 | x12 | x12 | x12 | x12 | x12 | x12 | x12 | x12 | x12 | x12 | x12 | x12 | x12 | x12 | x12 | %489
 x12 | x12 | x12 | x12 | x12 | x12 | x12 | x12 | x12 | x12 | x12 | x12 | x12 | x12 | x12 | x12 | %505
 x12 | x12 | x12 | x12 | x12 | x12 | x12 | x12 | x12 | x12 | x12 | x12 | x12 | x12 | x12 | x12 | %521
 x12 | x12 | x12 | x12 | x12 | x12 | x12 | x12 | x12 | x12 | x12 | x12 | x12 | x12 | x12 | x12 | %537
 x12 | x12 | x12 | x12 | x12 | x12 | x12 | x12 | x12 | x12 | x12 | x12 | x12 | x12 | x12 | x12 | %553
 x12 | x12 | x12 | x12 | x12 | x12 | x12 | x12 | x12 | x12 | x12 | x12 | x12 | x12 | x12 | x12 | %569
 x12 |] %570
V:7
 x3 | x3 | x3 | x3 | x3 | x3 | x3 | x3 | x3 | x3 | x3 | x3 | x3 | x3 | x3 | x3 | x3 | x3 | x3 | %19
 x3 | x3 | x3 | x3 | x3 | x3 | x3 | x3 | x3 | x3 | x3 | x3 | x3 | x3 | x3 | x3 | x3 | x3 | x3 | %38
 x3 | x3 | x3 | x3 | x3 | x3 | x3 | x3 | x3 | x3 | x3 | x3 | x3 | x3 | x3 | x3 | x3 | x3 | x3 | %57
 x3 | x3 | x3 | x3 | x3 | x3 | x3 | x3 | x3 | x3 | x3 | x3 | x3 | x3 | x3 | x3 | x3 | x3 | x3 | %76
 x3 | x3 | x3 | x3 | x3 | x3 | x3 | x3 | x3 | x3 | x3 | x3 | x3 | x3 | x3 | x3 | x3 | x3 | x3 | %95
 x3 | x3 | x3 | x3 | x3 | x3 | x3 | x3 | x3 | x3 | x3 | x3 | x3 | x3 | x3 | x3 | x3 | x3 | x3 | %114
 x3 | x3 | x3 | x3 | x3 | x3 |[M:4/4] x8 | x8 | x8 | x8 | x8 | x8 | x8 | x8 | x8 | x8 | x8 | x8 | %132
 x8 | x8 | x8 | x8 | x8 | x8 | x8 | x8 | x8 | x8 | x8 | x8 | B,,C,/>D,/ z2 z4 | x8 | x8 | x8 | x8 | %149
 x8 | x8 | x8 | B,,C,/>D,/ z2 z2 x2 |[M:3/4] x6 | x6 | x6 | x6 | x6 | x6 | x6 | x6 | x6 | x6 | x6 | %164
 x6 | x6 | x6 | x6 | x6 | x6 | x6 | x6 | x6 | x6 | x6 | x6 | x6 | x6 | x6 | x6 | x6 | x6 | x6 | %183
 x6 | x6 | x6 | x6 | x6 | x6 | x6 | x6 | x6 | x6 | x6 | x6 | x6 | x6 | x6 | x6 | x6 | x6 | x6 | %202
 x6 | x6 | x6 | x6 | x6 | x6 | x6 | x6 | x6 | x6 | x6 | x6 | x6 | x6 | x6 | x6 | x6 | x6 | x6 | %221
 x6 | x6 | x6 | x6 | x6 | x6 | x6 | x6 | x6 | x6 | x6 | x6 | x6 | x6 | x6 | x6 | x6 | x6 | x6 | %240
 x6 | x6 | x6 | x6 | x6 | x6 | x6 | x6 | x6 | x6 | x6 | x6 | x6 | x6 | x6 | x6 | x6 | x6 | x6 | %259
 x6 | x6 | x6 | x6 | x6 | x6 | x6 | x6 |[M:3/4] x6 | x6 | x6 | x6 |[K:treble] x3[K:treble] x3 | %272
 x3[K:bass] x3 |[K:bass] x6 | x6 | x6 | x6 | x6 | x6 | x6 | x6 | x6 | x6 | x6 | x6 | x6 | x6 | x6 | %288
 x6 | x6 | x6 | x6 | x6 | x6 | x6 | x6 | x6 | x6 | x6 | x6 | x6 | x6 | x6 | x6 | x6 | x6 | x6 | %307
 x6 | x6 | x6 | x6 | x6 | x6 | x6 | x6 | x6 | x6 | x6 | x6 | x6 | x6 | x6 | x6 | x6 |[M:3/4] x6 | %325
 x6 | x6 | x6 | x6 | x6 | x6 | x6 | x6 | x6 | x6 | x6 | x6 | x6 | x6 | x6 | x6 | x6 | x6 | x6 | %344
 x6 | x6 | x6 | x6 | x6 | x6 | x6 | x6 | x6 | x6 | x6 | x6 | x6 | x6 | x6 | x6 | x6 | x6 | x6 | %363
 x6 | x6 | x6 | x6 | x6 | x6 | x6 | x6 | x6 | x6 | x6 | x6 | x6 | x6 | x6 | x6 | x6 | x6 | x6 | %382
 x6 | x6 | x6 | x6 | x6 | x6 | x6 | x6 | x6 | x6 | x6 | x6 | x6 | x6 | x6 | x6 | x6 | x6 | x6 | %401
 x6 | x6 | x6 |[M:2/4] x4 | x4 | x4 | x4 | x4 | x4 | x4 | x4 | x4 | x4 | x4 | x4 | x4 | x4 | x4 | %419
 x4 | x4 | x4 | x4 | x4 | x4 | x4 | x4 | x4 | x4 | x4 | x4 | x4 | x4 | x4 | x4 | x4 | x4 | x4 | %438
 x4 | x4 | x4 | x4 | x4 | x4 | x4 | x4 | x4 | x4 | x4 | x4 | x4 | x4 | x4 | x4 | x4 | x4 | x4 | %457
 x4 | x4 | x4 | x4 | x4 | x4 | x4 | x4 | x4 | x4 | x4 | x4 |[M:12/8] x12 | x12 | x12 | x12 | x12 | %474
 x12 | x12 | x12 | x12 | x12 | x12 | x12 | x12 | x12 | x12 | x12 | x12 | x12 | x12 | x12 | x12 | %490
 x12 | x12 | x12 | x12 | x12 | x12 | x12 | x12 | x12 | x12 | x12 | x12 | x12 | x12 | x12 | x12 | %506
 x12 | x12 | x12 | x12 | x12 | x12 | x12 | x12 | x12 | x12 | x12 | x12 | x12 | x12 | x12 | x12 | %522
 x12 | x12 | x12 | x12 | x12 | x12 | x12 | x12 | x12 | x12 | x12 | x12 | x12 | x12 | x12 | x12 | %538
 x12 | x12 | x12 | x12 | x12 | x12 | x12 | x12 | x12 | x12 | x12 | x12 | x12 | x12 | x12 | x12 | %554
 x12 | x12 | x12 | x12 | x12 | x12 | x12 | x12 | x12 | x12 | x12 | x12 | x12 | x12 | x12 | x12 |] %570

